; generated by PrusaSlicer 2.7.0+win64 on 2024-11-06 at 21:48:40 UTC


;
;

;
;
; TODO: check the size of the extruder and the y-bar clearance. Optimize & test supports.

; external perimeters extrusion width = 0.42mm
; perimeters extrusion width = 0.44mm
; infill extrusion width = 0.44mm
; solid infill extrusion width = 0.44mm
; top infill extrusion width = 0.44mm
; first layer extrusion width = 0.56mm


EXCLUDE_OBJECT_DEFINE NAME=Forma_Caixa CENTER=60.000,60.000 POLYGON=[[70.000,70.000],[50.000,70.000],[50.000,50.000],[70.000,50.000]]

;TYPE:Custom
PRINT_START EXTRUDER=250 BED=100;
G21 ; set units to millimeters
G90 ; use absolute coordinates
M83 ; use relative distances for extrusion
M107
;LAYER_CHANGE
;Z:0.2
;HEIGHT:0.2
;BEFORE_LAYER_CHANGE
;0.2
G92 E0

G1 Z.2 F18000
;AFTER_LAYER_CHANGE
;0.2
G1 E-2 F3000
G1 X47.996 Y47.18 F18000
G1 Z.2
G1 E2 F1800
M204 S1000
;TYPE:Skirt/Brim
;WIDTH:0.56
G1 X50.09 Y46.505 E.09459
G1 X69.91 Y46.505 E.85217
G1 X71.545 Y46.899 E.07231
G1 X72.82 Y47.996 E.07232
G1 X73.495 Y50.09 E.09459
G1 X73.495 Y69.91 E.85217
G1 X73.101 Y71.545 E.07231
G1 X72.004 Y72.82 E.07232
G1 X69.91 Y73.495 E.09459
G1 X50.09 Y73.495 E.85217
G1 X48.455 Y73.101 E.07231
G1 X47.18 Y72.004 E.07232
G1 X46.505 Y69.91 E.09459
G1 X46.505 Y50.09 E.85217
G1 X46.899 Y48.455 E.07231
G1 X47.956 Y47.225 E.06973
M204 S2000
M204 S3000
G1 X48.357 Y47.612 F18000
M204 S1000
G1 F1800
G1 X48.495 Y47.469 E.00854
G1 X50.09 Y47.022 E.07122
G1 X69.91 Y47.022 E.85217
G1 X71.413 Y47.415 E.06679
G1 X72.531 Y48.495 E.06683
G1 X72.978 Y50.09 E.07122
G1 X72.978 Y69.91 E.85217
G1 X72.585 Y71.413 E.06679
G1 X71.505 Y72.531 E.06683
G1 X69.91 Y72.978 E.07122
G1 X50.09 Y72.978 E.85217
G1 X48.587 Y72.585 E.06679
G1 X47.469 Y71.505 E.06683
G1 X47.022 Y69.91 E.07122
G1 X47.022 Y50.09 E.85217
G1 X47.415 Y48.587 E.06679
G1 X48.315 Y47.655 E.05571
M204 S2000
M204 S3000
G1 X48.679 Y48.064 F18000
M204 S1000
G1 F1800
G1 X48.987 Y47.79 E.01772
G1 X50.09 Y47.539 E.04864
G1 X69.91 Y47.539 E.85217
G1 X71.269 Y47.931 E.06081
G1 X72.21 Y48.987 E.06081
G1 X72.461 Y50.09 E.04864
G1 X72.461 Y69.91 E.85217
G1 X72.069 Y71.269 E.06081
G1 X71.013 Y72.21 E.06081
G1 X69.91 Y72.461 E.04864
G1 X50.09 Y72.461 E.85217
G1 X48.731 Y72.069 E.06081
G1 X47.79 Y71.013 E.06081
G1 X47.539 Y69.91 E.04864
G1 X47.539 Y50.09 E.85217
G1 X47.931 Y48.731 E.06081
G1 X48.634 Y48.104 E.0405
M204 S2000
M204 S3000
G1 X48.914 Y48.654 F18000
M204 S1000
G1 F1800
G1 X50.09 Y48.056 E.05672
G1 X69.91 Y48.056 E.85217
G1 X71.108 Y48.446 E.05417
G1 X71.944 Y50.09 E.0793
G1 X71.944 Y69.91 E.85217
G1 X71.554 Y71.108 E.05417
G1 X69.91 Y71.944 E.0793
G1 X50.09 Y71.944 E.85217
G1 X48.892 Y71.554 E.05417
G1 X48.056 Y69.91 E.0793
G1 X48.056 Y50.09 E.85217
G1 X48.446 Y48.892 E.05417
G1 X48.861 Y48.681 E.02002
M204 S2000
M204 S3000
G1 X49.025 Y49.049 F18000
M204 S1000
G1 F1800
G1 X50.09 Y48.573 E.05016
G1 X69.91 Y48.573 E.85217
G1 X70.922 Y48.96 E.04658
G1 X71.427 Y50.09 E.05322
G1 X71.427 Y69.91 E.85217
G1 X71.04 Y70.922 E.04658
G1 X69.91 Y71.427 E.05322
G1 X50.09 Y71.427 E.85217
G1 X49.078 Y71.04 E.04658
G1 X48.573 Y69.91 E.05322
G1 X48.573 Y50.09 E.85217
G1 X48.96 Y49.078 E.04658
G1 X48.97 Y49.073 E.00048
M204 S2000
EXCLUDE_OBJECT_START NAME=Forma_Caixa
G1 E-2 F3000
M204 S3000
G1 X48.97 Y49.073 Z.6 F18000
G1 X67.462 Y67.462
G1 Z.2
G1 E2 F1800
M204 S1000
;TYPE:Perimeter
;WIDTH:0.559999
G1 X52.538 Y67.462 E.64166
G1 X52.538 Y52.538 E.64166
G1 X67.462 Y52.538 E.64166
G1 X67.462 Y60 E.32083
G1 X67.462 Y67.402 E.31825
M204 S2000
M204 S3000
G1 X67.979 Y67.979 F18000
M204 S1000
G1 F1800
G1 X52.021 Y67.979 E.68612
G1 X52.021 Y52.021 E.68612
G1 X67.979 Y52.021 E.68612
G1 X67.979 Y60 E.34306
G1 X67.979 Y67.919 E.34048
M204 S2000
M204 S3000
G1 X68.496 Y68.496 F18000
M204 S1000
G1 F1800
G1 X51.504 Y68.496 E.73058
G1 X51.504 Y51.504 E.73058
G1 X68.496 Y51.504 E.73058
G1 X68.496 Y60 E.36529
G1 X68.496 Y68.436 E.36271
M204 S2000
M204 S3000
G1 X69.013 Y69.013 F18000
M204 S1000
G1 F1800
G1 X50.987 Y69.013 E.77503
G1 X50.987 Y50.987 E.77503
G1 X69.013 Y50.987 E.77503
G1 X69.013 Y60 E.38752
G1 X69.013 Y68.953 E.38494
M204 S2000
M204 S3000
G1 X69.53 Y69.53 F18000
M204 S1000
;TYPE:External perimeter
G1 F1800
G1 X50.47 Y69.53 E.81949
G1 X50.47 Y50.47 E.81949
G1 X69.53 Y50.47 E.81949
G1 X69.53 Y60 E.40975
G1 X69.53 Y69.47 E.40717
M204 S2000
G1 X69.134 Y69.529 F18000
G1 E-2 F3000
M204 S3000
G1 Z.6 F18000
G1 X66.208 Y52.719
G1 Z.2
G1 E2 F1800
M204 S1000
;TYPE:Solid infill
;WIDTH:0.572819
G1 X67.048 Y53.559 E.05234
G1 X67.048 Y54.308 E.033
G1 X65.692 Y52.952 E.0845
G1 X64.942 Y52.952 E.03305
G1 X67.048 Y55.058 E.13123
G1 X67.048 Y55.807 E.033
G1 X64.193 Y52.952 E.1779
G1 X63.443 Y52.952 E.03305
G1 X67.048 Y56.557 E.22463
G1 X67.048 Y57.306 E.033
G1 X62.694 Y52.952 E.27131
G1 X61.945 Y52.952 E.033
G1 X67.048 Y58.055 E.31798
G1 X67.048 Y58.805 E.03305
G1 X61.195 Y52.952 E.36471
G1 X60.446 Y52.952 E.033
G1 X67.048 Y59.554 E.41138
G1 X67.048 Y60.304 E.03305
G1 X59.696 Y52.952 E.45812
G1 X58.947 Y52.952 E.033
G1 X67.048 Y61.053 E.50479
G1 X67.048 Y61.802 E.033
G1 X58.198 Y52.952 E.55146
G1 X57.448 Y52.952 E.03305
G1 X67.048 Y62.552 E.5982
G1 X67.048 Y63.301 E.033
G1 X56.699 Y52.952 E.64487
G1 X55.949 Y52.952 E.03305
G1 X67.048 Y64.051 E.6916
G1 X67.048 Y64.8 E.033
G1 X55.2 Y52.952 E.73827
G1 X54.451 Y52.952 E.033
G1 X67.048 Y65.549 E.78495
G1 X67.048 Y66.299 E.03305
G1 X53.701 Y52.952 E.83168
G1 X52.952 Y52.952 E.033
G1 X67.048 Y67.048 E.87835
G1 X66.299 Y67.048 E.033
G1 X52.952 Y53.701 E.83168
G1 X52.952 Y54.451 E.03305
G1 X65.549 Y67.048 E.78495
G1 X64.8 Y67.048 E.033
G1 X52.952 Y55.2 E.73827
G1 X52.952 Y55.95 E.03305
G1 X64.05 Y67.048 E.69154
G1 X63.301 Y67.048 E.033
G1 X52.952 Y56.699 E.64487
G1 X52.952 Y57.448 E.033
G1 X62.552 Y67.048 E.5982
G1 X61.802 Y67.048 E.03305
G1 X52.952 Y58.198 E.55146
G1 X52.952 Y58.947 E.033
G1 X61.053 Y67.048 E.50479
G1 X60.303 Y67.048 E.03305
G1 X52.952 Y59.697 E.45806
G1 X52.952 Y60.446 E.033
G1 X59.554 Y67.048 E.41138
G1 X58.805 Y67.048 E.033
G1 X52.952 Y61.195 E.36471
G1 X52.952 Y61.945 E.03305
G1 X58.055 Y67.048 E.31798
G1 X57.306 Y67.048 E.033
G1 X52.952 Y62.694 E.27131
G1 X52.952 Y63.444 E.03305
G1 X56.556 Y67.048 E.22457
G1 X55.807 Y67.048 E.033
G1 X52.952 Y64.193 E.1779
G1 X52.952 Y64.942 E.033
G1 X55.058 Y67.048 E.13123
G1 X54.308 Y67.048 E.03305
G1 X52.952 Y65.692 E.0845
G1 X52.952 Y66.441 E.033
G1 X53.792 Y67.281 E.05234
M204 S2000
EXCLUDE_OBJECT_END NAME=Forma_Caixa
;LAYER_CHANGE
;Z:0.44
;HEIGHT:0.24
;BEFORE_LAYER_CHANGE
;0.44
G92 E0

G1 Z.44 F18000
;AFTER_LAYER_CHANGE
;0.44
M140 S90 ; set bed temperature
EXCLUDE_OBJECT_START NAME=Forma_Caixa
M204 S3000
G1 X68.156 Y68.156
M204 S2000
;TYPE:Perimeter
;WIDTH:0.439999
G1 F4392
G1 X51.844 Y68.156 E.63232
G1 X51.844 Y51.844 E.63232
G1 X68.156 Y51.844 E.63232
G1 X68.156 Y60 E.31616
G1 X68.156 Y68.096 E.31383
M204 S3000
G1 X68.545 Y68.545 F18000
M204 S2000
G1 F4392
G1 X51.455 Y68.545 E.66248
G1 X51.455 Y51.455 E.66248
G1 X68.545 Y51.455 E.66248
G1 X68.545 Y60 E.33124
G1 X68.545 Y68.485 E.32891
M204 S3000
G1 X68.933 Y68.933 F18000
M204 S2000
G1 F4392
G1 X51.067 Y68.933 E.69256
G1 X51.067 Y51.067 E.69256
G1 X68.933 Y51.067 E.69256
G1 X68.933 Y60 E.34628
G1 X68.933 Y68.873 E.34395
M204 S3000
G1 X69.322 Y69.322 F18000
M204 S2000
G1 F4392
G1 X50.678 Y69.322 E.72272
G1 X50.678 Y50.678 E.72272
G1 X69.322 Y50.678 E.72272
G1 X69.322 Y60 E.36136
G1 X69.322 Y69.262 E.35903
M204 S3000
G1 X69.7 Y69.7 F18000
M204 S2000
;TYPE:External perimeter
;WIDTH:0.419999
G1 F2400
G1 X50.3 Y69.7 E.71331
G1 X50.3 Y50.3 E.71331
G1 X69.7 Y50.3 E.71331
G1 X69.7 Y60 E.35666
G1 X69.7 Y69.64 E.35445
G1 X69.304 Y69.699 F18000
M204 S3000
G1 X52.26 Y52.186
M204 S4000
;TYPE:Solid infill
;WIDTH:0.534256
G1 F4392
G1 X52.218 Y52.144 E.00286
G1 X52.159 Y52.159 E.00293
G1 X52.144 Y52.218 E.00293
G1 X52.186 Y52.26 E.00286
G1 X52.245 Y52.245 E.00293
;WIDTH:0.439999
G1 X52.155 Y52.865 E.02429
G1 X52.865 Y52.155 E.03892
G1 X53.044 Y52.019 E.00871
;WIDTH:0.391504
G1 X53.003 Y52.03 E.00144
G1 X52.984 Y51.959 E.00249
G1 X53.055 Y51.978 E.00249
;WIDTH:0.439999
G1 X53.415 Y52.155 E.01555
G1 X52.155 Y53.415 E.06907
G1 X52.155 Y53.964 E.02128
G1 X53.964 Y52.155 E.09917
G1 X54.513 Y52.155 E.02128
G1 X52.155 Y54.513 E.12927
G1 X52.155 Y55.063 E.02132
G1 X55.063 Y52.155 E.15942
G1 X55.612 Y52.155 E.02128
G1 X52.155 Y55.612 E.18952
G1 X52.155 Y56.162 E.02132
G1 X56.162 Y52.155 E.21967
G1 X56.711 Y52.155 E.02128
G1 X52.155 Y56.711 E.24976
G1 X52.155 Y57.26 E.02128
G1 X57.26 Y52.155 E.27986
G1 X57.81 Y52.155 E.02132
G1 X52.155 Y57.81 E.31001
G1 X52.155 Y58.359 E.02128
G1 X58.359 Y52.155 E.34011
G1 X58.909 Y52.155 E.02132
G1 X52.155 Y58.909 E.37026
G1 X52.155 Y59.458 E.02128
G1 X59.458 Y52.155 E.40036
G1 X60.008 Y52.155 E.02132
G1 X52.155 Y60.008 E.43051
G1 X52.155 Y60.557 E.02128
G1 X60.557 Y52.155 E.4606
G1 X61.106 Y52.155 E.02128
G1 X52.155 Y61.106 E.4907
G1 X52.155 Y61.656 E.02132
G1 X61.656 Y52.155 E.52085
G1 X62.205 Y52.155 E.02128
G1 X52.155 Y62.205 E.55095
G1 X52.155 Y62.755 E.02132
G1 X62.755 Y52.155 E.5811
G1 X63.304 Y52.155 E.02128
G1 X52.155 Y63.304 E.6112
G1 X52.155 Y63.853 E.02128
G1 X63.853 Y52.155 E.64129
G1 X64.403 Y52.155 E.02132
G1 X52.155 Y64.403 E.67145
G1 X52.155 Y64.952 E.02128
G1 X64.952 Y52.155 E.70154
G1 X65.502 Y52.155 E.02132
G1 X52.155 Y65.502 E.73169
G1 X52.155 Y66.051 E.02128
G1 X66.051 Y52.155 E.76179
G1 X66.6 Y52.155 E.02128
G1 X52.155 Y66.6 E.79189
G1 X52.155 Y67.15 E.02132
G1 X67.15 Y52.155 E.82204
G1 X67.699 Y52.155 E.02128
G1 X52.155 Y67.699 E.85214
G1 X52.094 Y67.936 E.00949
;WIDTH:0.391504
G1 X52.023 Y67.917 E.00249
G1 X52.042 Y67.988 E.00249
G1 X52.083 Y67.977 E.00144
;WIDTH:0.439999
G1 X52.558 Y67.845 E.01911
G1 X67.845 Y52.558 E.83805
G1 X67.845 Y53.108 E.02132
G1 X53.108 Y67.845 E.80789
G1 X53.657 Y67.845 E.02128
G1 X67.845 Y53.657 E.7778
G1 X67.845 Y54.207 E.02132
G1 X54.207 Y67.845 E.74765
G1 X54.756 Y67.845 E.02128
G1 X67.845 Y54.756 E.71755
G1 X67.845 Y55.305 E.02128
G1 X55.305 Y67.845 E.68745
G1 X55.855 Y67.845 E.02132
G1 X67.845 Y55.855 E.6573
G1 X67.845 Y56.404 E.02128
G1 X56.404 Y67.845 E.62721
G1 X56.954 Y67.845 E.02132
G1 X67.845 Y56.954 E.59705
G1 X67.845 Y57.503 E.02128
G1 X57.503 Y67.845 E.56696
G1 X58.052 Y67.845 E.02128
G1 X67.845 Y58.052 E.53686
G1 X67.845 Y58.602 E.02132
G1 X58.602 Y67.845 E.50671
G1 X59.151 Y67.845 E.02128
G1 X67.845 Y59.151 E.47661
G1 X67.845 Y59.701 E.02132
G1 X59.701 Y67.845 E.44646
G1 X60.25 Y67.845 E.02128
G1 X67.845 Y60.25 E.41636
G1 X67.845 Y60.8 E.02132
G1 X60.8 Y67.845 E.38621
G1 X61.349 Y67.845 E.02128
G1 X67.845 Y61.349 E.35612
G1 X67.845 Y61.898 E.02128
G1 X61.898 Y67.845 E.32602
G1 X62.448 Y67.845 E.02132
G1 X67.845 Y62.448 E.29587
G1 X67.845 Y62.997 E.02128
G1 X62.997 Y67.845 E.26577
G1 X63.547 Y67.845 E.02132
G1 X67.845 Y63.547 E.23562
G1 X67.845 Y64.096 E.02128
G1 X64.096 Y67.845 E.20552
G1 X64.645 Y67.845 E.02128
G1 X67.845 Y64.645 E.17543
G1 X67.845 Y65.195 E.02132
G1 X65.195 Y67.845 E.14528
G1 X65.744 Y67.845 E.02128
G1 X67.845 Y65.744 E.11518
G1 X67.845 Y66.294 E.02132
G1 X66.294 Y67.845 E.08503
G1 X66.843 Y67.845 E.02128
G1 X67.845 Y66.843 E.05493
G1 X68.052 Y67.232 E.01708
;WIDTH:0.391504
G1 X67.981 Y67.213 E.00249
G1 X68 Y67.284 E.00249
G1 X68.041 Y67.273 E.00144
;WIDTH:0.439999
G1 X67.845 Y67.392 E.00889
G1 X67.392 Y67.845 E.02483
M204 S2000
EXCLUDE_OBJECT_END NAME=Forma_Caixa
M106 S150.45
;LAYER_CHANGE
;Z:0.68
;HEIGHT:0.24
;BEFORE_LAYER_CHANGE
;0.68
G92 E0

G1 Z.68 F18000
;AFTER_LAYER_CHANGE
;0.68
EXCLUDE_OBJECT_START NAME=Forma_Caixa
M204 S3000
G1 X68.156 Y68.156
M204 S2000
;TYPE:Perimeter
G1 F4374
G1 X51.844 Y68.156 E.63232
G1 X51.844 Y51.844 E.63232
G1 X68.156 Y51.844 E.63232
G1 X68.156 Y60 E.31616
G1 X68.156 Y68.096 E.31383
M204 S3000
G1 X68.545 Y68.545 F18000
M204 S2000
G1 F4374
G1 X51.455 Y68.545 E.66248
G1 X51.455 Y51.455 E.66248
G1 X68.545 Y51.455 E.66248
G1 X68.545 Y60 E.33124
G1 X68.545 Y68.485 E.32891
M204 S3000
G1 X68.933 Y68.933 F18000
M204 S2000
G1 F4374
G1 X51.067 Y68.933 E.69256
G1 X51.067 Y51.067 E.69256
G1 X68.933 Y51.067 E.69256
G1 X68.933 Y60 E.34628
G1 X68.933 Y68.873 E.34395
M204 S3000
G1 X69.322 Y69.322 F18000
M204 S2000
G1 F4374
G1 X50.678 Y69.322 E.72272
G1 X50.678 Y50.678 E.72272
G1 X69.322 Y50.678 E.72272
G1 X69.322 Y60 E.36136
G1 X69.322 Y69.262 E.35903
M204 S3000
G1 X69.7 Y69.7 F18000
M204 S2000
;TYPE:External perimeter
;WIDTH:0.419999
G1 F2400
G1 X50.3 Y69.7 E.71331
G1 X50.3 Y50.3 E.71331
G1 X69.7 Y50.3 E.71331
G1 X69.7 Y60 E.35666
G1 X69.7 Y69.64 E.35445
G1 X69.304 Y69.699 F18000
M204 S3000
G1 X52.186 Y67.74
M204 S4000
;TYPE:Solid infill
;WIDTH:0.534256
G1 F4374
G1 X52.144 Y67.782 E.00286
G1 X52.159 Y67.841 E.00293
G1 X52.218 Y67.856 E.00293
G1 X52.26 Y67.814 E.00286
G1 X52.245 Y67.755 E.00293
;WIDTH:0.439999
G1 X52.865 Y67.845 E.02429
G1 X52.155 Y67.135 E.03892
G1 X52.155 Y66.585 E.02132
G1 X53.415 Y67.845 E.06907
G1 X53.964 Y67.845 E.02128
G1 X52.155 Y66.036 E.09917
G1 X52.155 Y65.487 E.02128
G1 X54.513 Y67.845 E.12927
G1 X55.063 Y67.845 E.02132
G1 X52.155 Y64.937 E.15942
G1 X52.155 Y64.388 E.02128
G1 X55.612 Y67.845 E.18952
G1 X56.162 Y67.845 E.02132
G1 X52.155 Y63.838 E.21967
G1 X52.155 Y63.289 E.02128
G1 X56.711 Y67.845 E.24976
G1 X57.26 Y67.845 E.02128
G1 X52.155 Y62.74 E.27986
G1 X52.155 Y62.19 E.02132
G1 X57.81 Y67.845 E.31001
G1 X58.359 Y67.845 E.02128
G1 X52.155 Y61.641 E.34011
G1 X52.155 Y61.091 E.02132
G1 X58.909 Y67.845 E.37026
G1 X59.458 Y67.845 E.02128
G1 X52.155 Y60.542 E.40036
G1 X52.155 Y59.993 E.02128
G1 X60.008 Y67.845 E.43048
G1 X60.557 Y67.845 E.02128
G1 X52.155 Y59.443 E.4606
G1 X52.155 Y58.894 E.02128
G1 X61.106 Y67.845 E.4907
G1 X61.656 Y67.845 E.02132
G1 X52.155 Y58.344 E.52085
G1 X52.155 Y57.795 E.02128
G1 X62.205 Y67.845 E.55095
G1 X62.755 Y67.845 E.02132
G1 X52.155 Y57.245 E.5811
G1 X52.155 Y56.696 E.02128
G1 X63.304 Y67.845 E.6112
G1 X63.853 Y67.845 E.02128
G1 X52.155 Y56.147 E.64129
G1 X52.155 Y55.597 E.02132
G1 X64.403 Y67.845 E.67145
G1 X64.952 Y67.845 E.02128
G1 X52.155 Y55.048 E.70154
G1 X52.155 Y54.498 E.02132
G1 X65.502 Y67.845 E.73169
G1 X66.051 Y67.845 E.02128
G1 X52.155 Y53.949 E.76179
G1 X52.155 Y53.4 E.02128
G1 X66.6 Y67.845 E.79189
G1 X67.15 Y67.845 E.02132
G1 X52.155 Y52.85 E.82204
M204 S2000
M204 S3000
G1 X52.042 Y52.012 F18000
M204 S4000
;WIDTH:0.391504
G1 F4374
G1 X52.023 Y52.083 E.00249
G1 X52.094 Y52.064 E.00249
G1 X52.083 Y52.023 E.00144
;WIDTH:0.439999
G1 X52.155 Y52.301 E.01113
G1 X67.699 Y67.845 E.85214
G1 X67.936 Y67.906 E.00949
;WIDTH:0.391504
G1 X67.917 Y67.977 E.00249
G1 X67.988 Y67.958 E.00249
G1 X67.977 Y67.917 E.00144
;WIDTH:0.439999
G1 X67.845 Y67.442 E.01911
G1 X52.558 Y52.155 E.83805
G1 X53.108 Y52.155 E.02132
G1 X67.845 Y66.892 E.80789
G1 X67.845 Y66.343 E.02128
G1 X53.657 Y52.155 E.7778
G1 X54.207 Y52.155 E.02132
G1 X67.845 Y65.793 E.74765
G1 X67.845 Y65.244 E.02128
G1 X54.756 Y52.155 E.71755
G1 X55.305 Y52.155 E.02128
G1 X67.845 Y64.695 E.68745
G1 X67.845 Y64.145 E.02132
G1 X55.855 Y52.155 E.6573
G1 X56.404 Y52.155 E.02128
G1 X67.845 Y63.596 E.62721
G1 X67.845 Y63.046 E.02132
G1 X56.954 Y52.155 E.59705
G1 X57.503 Y52.155 E.02128
G1 X67.845 Y62.497 E.56696
G1 X67.845 Y61.948 E.02128
G1 X58.052 Y52.155 E.53686
G1 X58.602 Y52.155 E.02132
G1 X67.845 Y61.398 E.50671
G1 X67.845 Y60.849 E.02128
G1 X59.151 Y52.155 E.47661
G1 X59.701 Y52.155 E.02132
G1 X67.845 Y60.299 E.44646
G1 X67.845 Y59.75 E.02128
G1 X60.25 Y52.155 E.41636
G1 X60.8 Y52.155 E.02132
G1 X67.845 Y59.201 E.38624
G1 X67.845 Y58.651 E.02132
G1 X61.349 Y52.155 E.35612
G1 X61.898 Y52.155 E.02128
G1 X67.845 Y58.102 E.32602
G1 X67.845 Y57.552 E.02132
G1 X62.448 Y52.155 E.29587
G1 X62.997 Y52.155 E.02128
G1 X67.845 Y57.003 E.26577
G1 X67.845 Y56.453 E.02132
G1 X63.547 Y52.155 E.23562
G1 X64.096 Y52.155 E.02128
G1 X67.845 Y55.904 E.20552
G1 X67.845 Y55.355 E.02128
G1 X64.645 Y52.155 E.17543
G1 X65.195 Y52.155 E.02132
G1 X67.845 Y54.805 E.14528
G1 X67.845 Y54.256 E.02128
G1 X65.744 Y52.155 E.11518
G1 X66.294 Y52.155 E.02132
G1 X67.845 Y53.706 E.08503
G1 X67.845 Y53.157 E.02128
G1 X66.843 Y52.155 E.05493
G1 X67.232 Y51.948 E.01708
