; generated by PrusaSlicer 2.7.0+win64 on 2024-11-14 at 16:41:29 UTC


;
;

;
;
; TODO: check the size of the extruder and the y-bar clearance. Optimize & test supports.

; external perimeters extrusion width = 0.42mm
; perimeters extrusion width = 0.44mm
; infill extrusion width = 0.44mm
; solid infill extrusion width = 0.44mm
; top infill extrusion width = 0.44mm
; support material extrusion width = 0.44mm
; first layer extrusion width = 0.56mm

; external perimeters extrusion width = 0.42mm
; perimeters extrusion width = 0.44mm
; infill extrusion width = 0.44mm
; solid infill extrusion width = 0.44mm
; top infill extrusion width = 0.44mm
; support material extrusion width = 0.44mm
; first layer extrusion width = 0.56mm


EXCLUDE_OBJECT_DEFINE NAME=Lower_Corner_1_and_3_Clip_x2_(1)_(2)_(2)V4_stl CENTER=45.536,60.135 POLYGON=[[51.732,49.107],[51.732,50.107],[47.341,50.107],[47.341,52.986],[55.000,52.986],[56.267,54.264],[56.729,54.982],[56.931,55.591],[57.000,56.229],[57.000,67.486],[55.454,67.486],[55.454,72.107],[40.454,72.107],[40.454,63.107],[37.454,63.107],[37.454,66.107],[34.469,66.107],[33.454,65.107],[33.454,53.107],[38.454,48.107],[50.716,48.107]]
EXCLUDE_OBJECT_DEFINE NAME=Lower_Corner_1_and_3_Clip_x2_(1)_(2)V5_stl CENTER=74.255,60.153 POLYGON=[[81.050,48.179],[80.947,49.480],[81.053,50.201],[81.324,50.876],[82.005,51.726],[82.605,52.137],[83.284,52.398],[84.006,52.493],[85.006,52.374],[85.563,52.402],[86.089,52.581],[86.546,52.895],[86.546,64.893],[85.531,65.893],[82.546,65.893],[82.546,62.893],[79.546,62.893],[79.546,71.893],[64.546,71.893],[64.546,67.272],[63.000,67.272],[63.008,55.800],[63.189,54.966],[63.598,54.217],[65.000,52.772],[72.659,52.772],[72.659,49.893],[68.268,49.893],[68.268,48.893],[69.284,47.893],[81.007,47.893]]

;TYPE:Custom
PRINT_START EXTRUDER=250 BED=100;
G21 ; set units to millimeters
G90 ; use absolute coordinates
M83 ; use relative distances for extrusion
M107
;LAYER_CHANGE
;Z:0.2
;HEIGHT:0.2
;BEFORE_LAYER_CHANGE
;0.2
G92 E0

G1 Z.2 F18000
;AFTER_LAYER_CHANGE
;0.2
G1 E-2 F3000
G1 X33.896 Y42.254 F18000
G1 Z.2
G1 E2 F1800
M204 S1000
;TYPE:Skirt/Brim
;WIDTH:0.56
G1 X34.724 Y41.701 E.04281
G1 X36.562 Y40.94 E.08553
G1 X37.52 Y40.746 E.04203
G1 X68.359 Y40.532 E1.32597
G1 X82.701 Y40.532 E.61664
G1 X84.367 Y41.151 E.07641
G1 X92.051 Y47.871 E.43889
G1 X92.661 Y48.676 E.04343
G1 X93.654 Y50.735 E.09828
G1 X93.907 Y51.843 E.04886
G1 X93.907 Y65.818 E.60086
G1 X93.709 Y66.803 E.0432
G1 X92.933 Y68.657 E.08641
G1 X92.372 Y69.487 E.04307
G1 X83.219 Y78.519 E.55288
G1 X81.45 Y79.254 E.08236
G1 X57.358 Y79.468 E1.03588
G1 X38.573 Y79.468 E.80767
G1 X36.781 Y78.733 E.08328
G1 X27.628 Y69.701 E.55288
G1 X27.066 Y68.871 E.0431
G1 X26.291 Y67.017 E.0864
G1 X26.093 Y66.032 E.0432
G1 X26.093 Y52.191 E.5951
G1 X26.287 Y51.215 E.04278
G1 X27.048 Y49.377 E.08553
G1 X27.601 Y48.55 E.04277
G1 X33.854 Y42.297 E.38021
M204 S2000
M204 S3000
G1 X34.219 Y42.662 F18000
M204 S1000
G1 F1800
G1 X34.262 Y42.62 E.00258
G1 X34.922 Y42.179 E.03413
G1 X36.76 Y41.418 E.08553
G1 X37.524 Y41.263 E.03352
G1 X68.363 Y41.049 E1.32597
G1 X82.701 Y41.049 E.61647
G1 X84.03 Y41.542 E.06095
G1 X91.709 Y48.259 E.43865
G1 X92.195 Y48.901 E.03462
G1 X93.188 Y50.96 E.09828
G1 X93.39 Y51.843 E.03895
G1 X93.39 Y65.818 E.60086
G1 X93.232 Y66.604 E.03447
G1 X92.456 Y68.457 E.08637
G1 X92.009 Y69.119 E.03434
G1 X82.856 Y78.151 E.55288
G1 X81.445 Y78.737 E.06569
G1 X57.353 Y78.951 E1.03588
G1 X38.573 Y78.951 E.80745
G1 X37.144 Y78.365 E.06641
G1 X27.991 Y69.333 E.55288
G1 X27.543 Y68.671 E.03437
G1 X26.768 Y66.818 E.08636
G1 X26.61 Y66.032 E.03447
G1 X26.61 Y52.191 E.5951
G1 X26.765 Y51.413 E.03411
G1 X27.526 Y49.575 E.08553
G1 X27.967 Y48.915 E.03413
G1 X34.177 Y42.705 E.3776
M204 S2000
M204 S3000
G1 X34.543 Y43.07 F18000
M204 S1000
G1 F1800
G1 X34.628 Y42.986 E.00514
G1 X35.12 Y42.657 E.02545
G1 X36.957 Y41.895 E.08551
G1 X37.527 Y41.78 E.025
G1 X68.367 Y41.566 E1.32601
G1 X82.701 Y41.566 E.6163
G1 X83.692 Y41.934 E.04545
G1 X91.366 Y48.647 E.43837
G1 X91.729 Y49.125 E.02581
G1 X92.723 Y51.184 E.0983
G1 X92.873 Y51.843 E.02906
G1 X92.873 Y65.818 E.60086
G1 X92.756 Y66.404 E.02569
G1 X91.98 Y68.257 E.08637
G1 X91.646 Y68.751 E.02564
G1 X82.493 Y77.783 E.55288
G1 X81.441 Y78.22 E.04898
G1 X57.348 Y78.434 E1.03593
G1 X38.573 Y78.434 E.80724
G1 X37.507 Y77.997 E.04953
G1 X28.354 Y68.965 E.55288
G1 X28.02 Y68.471 E.02564
G1 X27.244 Y66.618 E.08637
G1 X27.127 Y66.032 E.02569
G1 X27.127 Y52.191 E.5951
G1 X27.242 Y51.611 E.02542
G1 X28.003 Y49.773 E.08553
G1 X28.332 Y49.281 E.02545
G1 X34.5 Y43.113 E.37504
M204 S2000
M204 S3000
G1 X35.736 Y44.909 F18000
M204 S1000
G1 F1800
G1 X36.459 Y44.411 E.03775
G1 X37.275 Y44.076 E.03793
G1 X38.227 Y43.902 E.04161
G1 X51.002 Y43.907 E.54927
G1 X52.042 Y44.122 E.04566
G1 X52.658 Y44.383 E.02876
G1 X53.235 Y44.737 E.02911
G1 X54.934 Y46.378 E.10156
G1 X55.396 Y47.056 E.03528
G1 X55.725 Y47.808 E.03529
G1 X55.959 Y48.907 E.04831
G1 X56.985 Y49.285 E.04701
G1 X57.711 Y49.768 E.03749
G1 X59.442 Y51.508 E.10553
G1 X59.924 Y52.137 E.03407
G1 X60.83 Y50.996 E.06264
G1 X62.224 Y49.607 E.08461
G1 X63.027 Y49.064 E.04168
G1 X64.073 Y48.683 E.04786
G1 X64.298 Y47.527 E.05064
G1 X64.636 Y46.783 E.03513
G1 X65.129 Y46.088 E.03664
G1 X66.56 Y44.685 E.08616
G1 X67.258 Y44.214 E.0362
G1 X68.011 Y43.891 E.03523
G1 X69.06 Y43.688 E.04594
G1 X81.355 Y43.692 E.52863
G1 X82.275 Y43.888 E.04044
G1 X83.16 Y44.311 E.04217
G1 X84.2 Y45.199 E.0588
G1 X84.828 Y46.14 E.04864
G1 X85.103 Y46.906 E.03499
G1 X85.25 Y48.144 E.0536
G1 X86.358 Y48.274 E.04797
G1 X87.26 Y48.519 E.04019
G1 X88.104 Y48.889 E.03962
G1 X88.838 Y49.347 E.0372
G1 X89.495 Y49.893 E.03673
G1 X90.078 Y50.627 E.0403
G1 X90.497 Y51.473 E.04059
G1 X90.751 Y52.649 E.05173
G1 X90.751 Y65.125 E.53641
G1 X90.523 Y66.237 E.04881
G1 X90.083 Y67.167 E.04424
G1 X89.64 Y67.748 E.03141
G1 X88.321 Y69.047 E.0796
G1 X87.566 Y69.566 E.03939
G1 X86.692 Y69.93 E.04071
G1 X85.871 Y70.086 E.03593
G1 X83.752 Y70.097 E.09111
G1 X83.747 Y72.235 E.09192
G1 X83.6 Y73.026 E.03459
G1 X83.272 Y73.803 E.03626
G1 X82.794 Y74.483 E.03574
G1 X81.953 Y75.293 E.0502
G1 X81.29 Y75.705 E.03356
G1 X80.643 Y75.956 E.02984
G1 X79.851 Y76.098 E.0346
G1 X64.24 Y76.098 E.6712
G1 X63.424 Y75.949 E.03566
G1 X62.585 Y75.592 E.0392
G1 X62.054 Y75.223 E.0278
G1 X61.234 Y74.408 E.04971
G1 X60.802 Y73.769 E.03316
G1 X60.505 Y73.069 E.03269
G1 X60.355 Y72.333 E.0323
G1 X60.338 Y69.968 E.10169
G1 X59.658 Y70.655 E.04156
G1 X59.644 Y72.565 E.08212
G1 X59.487 Y73.305 E.03252
G1 X59.207 Y73.968 E.03094
G1 X58.855 Y74.513 E.02789
G1 X58.004 Y75.388 E.05248
G1 X57.32 Y75.857 E.03566
G1 X56.613 Y76.152 E.03294
G1 X55.813 Y76.307 E.03504
G1 X39.992 Y76.296 E.68023
G1 X39.205 Y76.124 E.03464
G1 X38.19 Y75.617 E.04878
G1 X37.208 Y74.698 E.05783
G1 X36.723 Y74.008 E.03626
G1 X36.397 Y73.228 E.03635
G1 X36.257 Y72.491 E.03225
G1 X36.249 Y70.311 E.09373
G1 X34.111 Y70.299 E.09193
G1 X33.327 Y70.15 E.03431
G1 X32.562 Y69.849 E.03535
G1 X31.674 Y69.256 E.04591
G1 X30.303 Y67.899 E.08294
G1 X29.733 Y67.054 E.04382
G1 X29.425 Y66.29 E.03542
G1 X29.249 Y65.336 E.04171
G1 X29.249 Y52.88 E.53555
G1 X29.423 Y51.929 E.04157
G1 X29.784 Y51.064 E.0403
G1 X30.324 Y50.29 E.04058
G1 X35.637 Y44.977 E.32305
G1 X35.687 Y44.943 E.0026
M204 S2000
M204 S3000
G1 X35.986 Y45.359 F18000
M204 S1000
G1 F1800
G1 X36.684 Y44.878 E.03645
G1 X37.399 Y44.579 E.03332
G1 X38.252 Y44.419 E.03731
G1 X50.976 Y44.424 E.54707
G1 X51.863 Y44.608 E.03895
G1 X52.939 Y45.161 E.05202
G1 X54.522 Y46.691 E.09466
G1 X54.955 Y47.326 E.03305
G1 X55.24 Y47.99 E.03107
G1 X55.404 Y48.742 E.03309
G1 X55.417 Y49.317 E.02473
G1 X56.108 Y49.474 E.03047
G1 X56.76 Y49.751 E.03046
G1 X57.401 Y50.182 E.03321
G1 X59.062 Y51.859 E.10148
G1 X59.581 Y52.544 E.03695
G1 X59.941 Y53.174 E.0312
G1 X60.832 Y51.771 E.07146
G1 X62.572 Y49.99 E.10705
G1 X63.251 Y49.531 E.03524
G1 X63.916 Y49.252 E.03101
G1 X64.586 Y49.104 E.0295
G1 X64.604 Y48.463 E.02757
G1 X64.78 Y47.715 E.03304
G1 X65.074 Y47.059 E.03091
G1 X65.509 Y46.44 E.03253
G1 X66.872 Y45.098 E.08224
G1 X67.485 Y44.679 E.03192
G1 X68.189 Y44.377 E.03294
G1 X69.084 Y44.205 E.03918
G1 X81.326 Y44.209 E.52635
G1 X82.132 Y44.386 E.03548
G1 X82.902 Y44.76 E.03681
G1 X83.835 Y45.567 E.05304
G1 X84.354 Y46.347 E.04028
G1 X84.596 Y47.01 E.03035
G1 X84.722 Y47.84 E.03609
G1 X84.743 Y48.697 E.03686
G1 X86.244 Y48.779 E.06463
G1 X87.072 Y49.001 E.03686
G1 X87.848 Y49.339 E.03639
G1 X88.522 Y49.757 E.0341
G1 X89.143 Y50.272 E.03469
G1 X89.654 Y50.923 E.03558
G1 X90.018 Y51.67 E.03573
G1 X90.234 Y52.676 E.04424
G1 X90.234 Y65.099 E.53413
G1 X90.043 Y66.044 E.04145
G1 X89.628 Y66.92 E.04168
G1 X89.265 Y67.392 E.0256
G1 X87.975 Y68.662 E.07783
G1 X87.298 Y69.123 E.03522
G1 X86.522 Y69.441 E.03606
G1 X85.802 Y69.574 E.03148
G1 X83.234 Y69.581 E.11041
G1 X83.234 Y72.164 E.11106
G1 X83.097 Y72.902 E.03227
G1 X82.808 Y73.573 E.03141
G1 X82.417 Y74.127 E.02915
G1 X81.614 Y74.902 E.04798
G1 X81.078 Y75.233 E.02709
G1 X80.523 Y75.452 E.02565
G1 X79.826 Y75.581 E.03048
G1 X64.265 Y75.581 E.66905
G1 X63.55 Y75.446 E.03128
G1 X62.817 Y75.129 E.03434
G1 X62.372 Y74.815 E.02342
G1 X61.618 Y74.061 E.04585
G1 X61.247 Y73.504 E.02877
G1 X60.993 Y72.895 E.02837
G1 X60.867 Y72.258 E.02792
G1 X60.858 Y70.228 E.08728
G1 X60.106 Y69.468 E.04597
G1 X59.142 Y70.442 E.05892
G1 X59.132 Y72.487 E.08793
G1 X58.999 Y73.131 E.02827
G1 X58.758 Y73.711 E.027
G1 X58.463 Y74.174 E.0236
G1 X57.688 Y74.979 E.04804
G1 X57.092 Y75.392 E.03118
G1 X56.484 Y75.651 E.02841
G1 X55.786 Y75.79 E.0306
G1 X40.072 Y75.785 E.67563
G1 X39.38 Y75.637 E.03043
G1 X38.478 Y75.186 E.04336
G1 X37.583 Y74.342 E.05289
G1 X37.165 Y73.738 E.03158
G1 X36.886 Y73.059 E.03156
G1 X36.77 Y72.422 E.02784
G1 X36.765 Y69.795 E.11295
G1 X34.184 Y69.787 E.11097
G1 X33.449 Y69.646 E.03218
G1 X32.78 Y69.379 E.03097
G1 X32.02 Y68.872 E.03928
G1 X30.685 Y67.549 E.08081
G1 X30.2 Y66.832 E.03722
G1 X29.927 Y66.167 E.03091
G1 X29.766 Y65.312 E.03741
G1 X29.766 Y52.904 E.53349
G1 X29.926 Y52.053 E.03723
G1 X30.249 Y51.292 E.03554
G1 X30.705 Y50.64 E.03421
G1 X35.944 Y45.401 E.31856
M204 S2000
M204 S3000
G1 X36.309 Y45.767 F18000
M204 S1000
G1 F1800
G1 X36.336 Y45.741 E.00161
G1 X36.911 Y45.343 E.03007
G1 X37.525 Y45.081 E.0287
G1 X38.277 Y44.936 E.03293
G1 X50.949 Y44.941 E.54484
G1 X51.687 Y45.095 E.03241
G1 X52.643 Y45.586 E.04621
G1 X54.112 Y47.007 E.08787
G1 X54.49 Y47.555 E.02862
G1 X54.755 Y48.169 E.02875
G1 X54.892 Y48.822 E.02869
G1 X54.902 Y49.815 E.0427
G1 X55.929 Y49.96 E.04459
G1 X56.534 Y50.217 E.02826
G1 X57.088 Y50.594 E.02881
G1 X58.681 Y52.209 E.09753
G1 X59.157 Y52.84 E.03398
G1 X59.579 Y53.593 E.03711
G1 X59.965 Y54.536 E.04381
G1 X60.422 Y53.376 E.05361
G1 X60.807 Y52.682 E.03412
G1 X61.582 Y51.707 E.05355
G1 X62.92 Y50.374 E.0812
G1 X63.474 Y49.998 E.02879
G1 X64.092 Y49.739 E.02881
G1 X65.099 Y49.601 E.0437
G1 X65.114 Y48.55 E.04519
G1 X65.262 Y47.903 E.02854
G1 X65.535 Y47.295 E.02866
G1 X65.917 Y46.758 E.02833
G1 X67.182 Y45.512 E.07634
G1 X67.755 Y45.121 E.02983
G1 X68.364 Y44.864 E.02842
G1 X69.108 Y44.722 E.03257
G1 X81.298 Y44.726 E.52411
G1 X81.934 Y44.865 E.02799
G1 X82.646 Y45.211 E.03404
G1 X83.424 Y45.882 E.04417
G1 X83.905 Y46.606 E.03737
G1 X84.1 Y47.157 E.02513
G1 X84.208 Y47.898 E.0322
G1 X84.134 Y49.301 E.06041
G1 X85.367 Y49.199 E.05319
G1 X86.131 Y49.283 E.03305
G1 X86.885 Y49.483 E.03354
G1 X87.594 Y49.789 E.0332
G1 X88.754 Y50.615 E.06123
G1 X89.229 Y51.219 E.03304
G1 X89.538 Y51.865 E.03079
G1 X89.717 Y52.703 E.03684
G1 X89.717 Y65.072 E.53181
G1 X89.543 Y65.908 E.03671
G1 X89.201 Y66.628 E.03427
G1 X88.889 Y67.037 E.02212
G1 X87.63 Y68.276 E.07595
G1 X87.033 Y68.679 E.03097
G1 X86.356 Y68.951 E.03137
G1 X85.735 Y69.06 E.02711
G1 X82.717 Y69.064 E.12976
G1 X82.717 Y72.141 E.1323
G1 X82.609 Y72.728 E.02566
G1 X82.368 Y73.302 E.02677
G1 X82.04 Y73.773 E.02468
G1 X81.276 Y74.51 E.04564
G1 X80.864 Y74.762 E.02076
G1 X80.4 Y74.95 E.02153
G1 X79.801 Y75.064 E.02622
G1 X64.291 Y75.064 E.66686
G1 X63.679 Y74.945 E.02681
G1 X63.052 Y74.668 E.02947
G1 X62.692 Y74.409 E.01907
G1 X62.004 Y73.716 E.04199
G1 X61.694 Y73.243 E.02432
G1 X61.482 Y72.725 E.02406
G1 X61.379 Y72.186 E.02359
G1 X61.375 Y69.959 E.09575
G1 X60.429 Y69.059 E.05614
G1 X60.066 Y68.512 E.02823
G1 X59.57 Y69.274 E.03909
G1 X58.625 Y70.173 E.05608
G1 X58.62 Y72.411 E.09622
G1 X58.511 Y72.959 E.02402
G1 X58.306 Y73.458 E.02319
G1 X58.071 Y73.836 E.01914
G1 X57.334 Y74.6 E.04564
G1 X56.822 Y74.95 E.02667
G1 X56.353 Y75.15 E.02192
G1 X55.759 Y75.273 E.02608
G1 X40.15 Y75.273 E.67111
G1 X39.555 Y75.15 E.02612
G1 X38.768 Y74.758 E.0378
G1 X37.961 Y73.988 E.04796
G1 X37.608 Y73.471 E.02692
G1 X37.376 Y72.893 E.02678
G1 X37.283 Y72.356 E.02343
G1 X37.283 Y69.278 E.13234
G1 X34.254 Y69.274 E.13023
G1 X33.617 Y69.156 E.02785
G1 X32.997 Y68.909 E.02869
G1 X32.367 Y68.487 E.0326
G1 X31.067 Y67.2 E.07865
G1 X30.667 Y66.608 E.03072
G1 X30.43 Y66.041 E.02642
G1 X30.283 Y65.286 E.03307
G1 X30.283 Y52.93 E.53125
G1 X30.428 Y52.179 E.03289
G1 X30.689 Y51.564 E.02872
G1 X31.088 Y50.989 E.03009
G1 X36.267 Y45.809 E.31494
M204 S2000
M204 S3000
G1 X36.633 Y46.175 F18000
M204 S1000
G1 F1800
G1 X36.685 Y46.123 E.00316
G1 X37.142 Y45.806 E.02391
G1 X37.655 Y45.582 E.02407
G1 X38.303 Y45.453 E.02841
G1 X50.922 Y45.458 E.54256
G1 X51.51 Y45.581 E.02583
G1 X52.345 Y46.01 E.04036
G1 X53.701 Y47.322 E.08112
G1 X54.049 Y47.826 E.02633
G1 X54.268 Y48.345 E.02422
G1 X54.38 Y48.898 E.02426
G1 X54.386 Y50.333 E.0617
G1 X55.255 Y50.342 E.03736
G1 X56.268 Y50.661 E.04566
G1 X56.739 Y50.977 E.02439
G1 X58.28 Y52.535 E.09422
G1 X58.715 Y53.108 E.03093
G1 X59.347 Y54.395 E.06165
G1 X59.626 Y55.68 E.05654
G1 X59.654 Y67.715 E.51745
G1 X59.555 Y68.212 E.02179
G1 X59.182 Y68.931 E.03483
G1 X58.48 Y69.641 E.04293
G1 X58.108 Y69.895 E.01937
G1 X58.108 Y72.336 E.10495
G1 X57.853 Y73.209 E.0391
G1 X57.678 Y73.499 E.01456
G1 X56.982 Y74.221 E.04312
G1 X56.557 Y74.506 E.022
G1 X55.732 Y74.756 E.03706
G1 X40.225 Y74.761 E.66673
G1 X39.728 Y74.662 E.02179
G1 X39.062 Y74.331 E.03198
G1 X38.339 Y73.634 E.04318
G1 X38.076 Y73.249 E.02005
G1 X37.88 Y72.772 E.02217
G1 X37.8 Y72.332 E.01923
G1 X37.8 Y68.761 E.15354
G1 X34.32 Y68.761 E.14962
G1 X33.783 Y68.666 E.02345
G1 X33.214 Y68.439 E.02634
G1 X32.713 Y68.102 E.02596
G1 X31.449 Y66.85 E.07649
G1 X31.132 Y66.381 E.02434
G1 X30.931 Y65.911 E.02198
G1 X30.8 Y65.26 E.02855
G1 X30.8 Y52.956 E.52901
G1 X30.929 Y52.309 E.02837
G1 X31.153 Y51.795 E.02411
G1 X31.47 Y51.338 E.02391
G1 X36.59 Y46.217 E.31135
M204 S2000
M204 S3000
G1 X36.956 Y46.583 F18000
M204 S1000
G1 F1800
G1 X37.033 Y46.506 E.00468
G1 X37.832 Y46.069 E.03916
G1 X38.328 Y45.97 E.02175
G1 X50.895 Y45.975 E.54032
G1 X51.336 Y46.069 E.01939
G1 X52.047 Y46.433 E.03434
G1 X53.322 Y47.674 E.0765
G1 X53.585 Y48.055 E.01991
G1 X53.863 Y48.928 E.03939
G1 X53.868 Y50.312 E.05951
G1 X53.772 Y50.85 E.0235
G1 X55.18 Y50.854 E.06054
G1 X56.007 Y51.108 E.0372
G1 X56.391 Y51.361 E.01977
G1 X57.9 Y52.886 E.09224
G1 X58.291 Y53.405 E.02794
G1 X58.646 Y54.041 E.03132
G1 X59.017 Y55.13 E.04946
G1 X59.137 Y56.211 E.04676
G1 X59.137 Y67.689 E.4935
G1 X59.068 Y68.037 E.01525
G1 X58.764 Y68.626 E.0285
G1 X58.135 Y69.255 E.03825
G1 X57.591 Y69.541 E.02642
G1 X57.591 Y72.31 E.11905
G1 X57.521 Y72.658 E.01526
G1 X57.254 Y73.202 E.02605
G1 X56.631 Y73.84 E.03834
G1 X56.336 Y74.038 E.01528
G1 X55.657 Y74.244 E.03051
G1 X40.251 Y74.244 E.66239
G1 X39.903 Y74.175 E.01525
G1 X39.359 Y73.907 E.02607
G1 X38.721 Y73.285 E.03831
G1 X38.37 Y72.606 E.03286
G1 X38.317 Y68.117 E.19302
G1 X37.658 Y68.244 E.02886
G1 X34.345 Y68.244 E.14244
G1 X33.905 Y68.163 E.01924
G1 X33.06 Y67.718 E.04106
G1 X31.832 Y66.502 E.0743
G1 X31.418 Y65.736 E.03744
G1 X31.317 Y65.234 E.02202
G1 X31.317 Y52.981 E.52682
G1 X31.416 Y52.486 E.0217
G1 X31.853 Y51.686 E.03919
G1 X36.913 Y46.626 E.30767
M204 S2000
M204 S3000
G1 X37.279 Y46.991 F18000
M204 S1000
G1 F1800
G1 X37.379 Y46.891 E.00608
G1 X38.005 Y46.557 E.03051
G1 X38.354 Y46.487 E.0153
G1 X50.867 Y46.492 E.538
G1 X51.161 Y46.556 E.01294
