; generated by PrusaSlicer 2.7.0+win64 on 2024-11-13 at 00:53:43 UTC


;
;

;
;
; TODO: check the size of the extruder and the y-bar clearance. Optimize & test supports.

; external perimeters extrusion width = 0.42mm
; perimeters extrusion width = 0.44mm
; infill extrusion width = 0.44mm
; solid infill extrusion width = 0.44mm
; top infill extrusion width = 0.44mm
; support material extrusion width = 0.44mm
; first layer extrusion width = 0.56mm


EXCLUDE_OBJECT_DEFINE NAME=Lower_Corner_1_and_3_Clip_x2_v2_stl CENTER=61.920,59.301 POLYGON=[[71.663,49.904],[72.424,49.904],[72.825,50.304],[72.825,64.668],[66.416,64.668],[66.416,70.096],[63.416,70.096],[63.416,64.668],[60.316,64.668],[60.316,70.096],[57.316,70.096],[57.316,64.668],[54.216,64.668],[54.216,70.096],[51.216,70.096],[51.216,64.668],[47.176,64.668],[47.175,60.168],[53.252,60.168],[53.659,60.079],[53.998,59.828],[54.244,59.252],[54.444,59.252],[56.006,50.390],[56.492,49.904]]

;TYPE:Custom
PRINT_START EXTRUDER=250 BED=100;
G21 ; set units to millimeters
G90 ; use absolute coordinates
M83 ; use relative distances for extrusion
M107
;LAYER_CHANGE
;Z:0.2
;HEIGHT:0.2
;BEFORE_LAYER_CHANGE
;0.2
G92 E0

G1 Z.2 F18000
;AFTER_LAYER_CHANGE
;0.2
G1 E-2 F3000
G1 X48.402 Y46.941 F18000
G1 Z.2
G1 E2 F1800
M204 S1000
;TYPE:Skirt/Brim
;WIDTH:0.56
G1 X51.269 Y43.986 E.17702
G1 X52.264 Y43.321 E.05146
G1 X54.102 Y42.559 E.08555
G1 X55.091 Y42.331 E.04364
G1 X60.247 Y42.026 E.22207
G1 X73.34 Y42.026 E.56294
G1 X74.515 Y42.259 E.0515
G1 X76.353 Y43.021 E.08555
G1 X77.348 Y43.686 E.05146
G1 X79.043 Y45.38 E.10303
G1 X79.708 Y46.376 E.05149
G1 X80.469 Y48.214 E.08553
G1 X80.703 Y49.388 E.05147
G1 X80.703 Y66.549 E.73784
G1 X80.309 Y68.052 E.06681
G1 X79.804 Y68.719 E.03597
G1 X76.498 Y71.968 E.19929
G1 X71.757 Y75.382 E.25119
G1 X69.964 Y75.96 E.081
G1 X47.259 Y75.96 E.97621
G1 X45.756 Y75.567 E.06679
G1 X45.09 Y75.062 E.03594
G1 X40.773 Y70.745 E.26249
G1 X39.988 Y69.403 E.06685
G1 X39.874 Y68.575 E.03594
G1 X39.874 Y56.979 E.49857
G1 X40.735 Y54.847 E.09886
G1 X48.361 Y46.984 E.47096
M204 S2000
M204 S3000
G1 X48.732 Y47.344 F18000
M204 S1000
G1 F1800
G1 X51.634 Y44.351 E.17924
G1 X52.462 Y43.798 E.04281
G1 X54.3 Y43.037 E.08553
G1 X55.122 Y42.848 E.03626
G1 X60.247 Y42.543 E.22074
G1 X73.34 Y42.543 E.56294
G1 X74.317 Y42.737 E.04283
G1 X76.155 Y43.498 E.08553
G1 X76.982 Y44.051 E.04277
G1 X78.677 Y45.746 E.10306
G1 X79.23 Y46.574 E.04281
G1 X79.992 Y48.412 E.08555
G1 X80.186 Y49.388 E.04278
G1 X80.186 Y66.549 E.73784
G1 X79.439 Y68.353 E.08395
G1 X76.196 Y71.549 E.19577
G1 X71.454 Y74.963 E.25123
G1 X69.964 Y75.443 E.06731
G1 X47.259 Y75.443 E.97621
G1 X45.455 Y74.696 E.08395
G1 X41.138 Y70.379 E.26249
G1 X40.391 Y68.575 E.08395
G1 X40.391 Y56.979 E.49857
G1 X41.107 Y55.206 E.08221
G1 X48.69 Y47.387 E.46831
M204 S2000
M204 S3000
G1 X49.061 Y47.747 F18000
M204 S1000
G1 F1800
G1 X52 Y44.717 E.18149
G1 X52.66 Y44.276 E.03413
G1 X54.498 Y43.515 E.08553
G1 X55.153 Y43.364 E.0289
G1 X60.247 Y43.06 E.21941
G1 X73.34 Y43.06 E.56294
G1 X74.119 Y43.215 E.03415
G1 X75.957 Y43.976 E.08553
G1 X76.617 Y44.417 E.03413
G1 X78.311 Y46.112 E.10303
G1 X78.752 Y46.771 E.03409
G1 X79.514 Y48.609 E.08555
G1 X79.669 Y49.388 E.03415
G1 X79.669 Y66.549 E.73784
G1 X79.073 Y67.988 E.06697
G1 X75.894 Y71.129 E.19215
G1 X71.152 Y74.543 E.25123
G1 X69.964 Y74.926 E.05367
G1 X47.259 Y74.926 E.97621
G1 X45.821 Y74.33 E.06693
G1 X41.504 Y70.013 E.26249
G1 X40.908 Y68.575 E.06693
G1 X40.908 Y56.979 E.49857
G1 X41.479 Y55.566 E.06553
G1 X49.019 Y47.79 E.4657
M204 S2000
M204 S3000
G1 X49.391 Y48.15 F18000
M204 S1000
G1 F1800
G1 X52.366 Y45.083 E.18371
G1 X52.858 Y44.754 E.02545
G1 X54.695 Y43.993 E.08549
G1 X55.185 Y43.88 E.02162
G1 X60.247 Y43.577 E.21803
G1 X73.34 Y43.577 E.56294
G1 X73.921 Y43.692 E.02546
G1 X75.759 Y44.454 E.08555
G1 X76.251 Y44.783 E.02545
G1 X77.946 Y46.477 E.10303
G1 X78.275 Y46.969 E.02545
G1 X79.036 Y48.807 E.08553
G1 X79.152 Y49.388 E.02547
G1 X79.152 Y66.549 E.73784
G1 X78.707 Y67.622 E.04994
G1 X75.592 Y70.709 E.18856
G1 X70.85 Y74.123 E.25123
G1 X69.964 Y74.409 E.04003
G1 X47.259 Y74.409 E.97621
G1 X46.187 Y73.965 E.04989
G1 X41.87 Y69.648 E.26249
G1 X41.425 Y68.575 E.04994
G1 X41.425 Y56.979 E.49857
G1 X41.851 Y55.925 E.04888
G1 X49.349 Y48.193 E.46308
M204 S2000
M204 S3000
G1 X51.949 Y49.309 F18000
M204 S1000
G1 F1800
G1 X52.431 Y48.186 E.05254
G1 X53.352 Y47.099 E.06126
G1 X54.312 Y46.448 E.04987
G1 X55.563 Y46.043 E.05654
G1 X58.446 Y45.972 E.12399
G1 X60.369 Y45.699 E.08351
G1 X72.708 Y45.704 E.53052
G1 X73.498 Y45.843 E.03449
G1 X74.29 Y46.141 E.03638
G1 X75.263 Y46.793 E.05036
G1 X76.1 Y47.662 E.05188
G1 X76.519 Y48.308 E.03311
G1 X76.86 Y49.135 E.03846
G1 X77.013 Y49.91 E.03396
G1 X77.007 Y53.642 E.16046
G1 X76.722 Y54.725 E.04815
G1 X76.023 Y55.892 E.05849
G1 X76.424 Y56.421 E.02854
G1 X76.795 Y57.219 E.03784
G1 X77.018 Y58.219 E.04405
G1 X77.025 Y65.029 E.2928
G1 X76.859 Y65.859 E.03639
G1 X76.521 Y66.634 E.03635
G1 X76.079 Y67.25 E.0326
G1 X75.393 Y67.936 E.04171
G1 X74.577 Y68.477 E.04209
G1 X73.861 Y68.749 E.03293
G1 X73.127 Y68.873 E.03201
G1 X52.87 Y68.873 E.87096
G1 X52.054 Y68.724 E.03566
G1 X51.215 Y68.367 E.0392
G1 X50.594 Y67.922 E.03285
G1 X49.908 Y67.236 E.04171
G1 X49.367 Y66.423 E.04199
G1 X49.11 Y65.756 E.03073
G1 X48.979 Y65.064 E.03028
G1 X48.971 Y59.906 E.22177
G1 X49.04 Y59.359 E.0237
G1 X49.301 Y58.565 E.03594
G1 X49.669 Y57.914 E.03215
G1 X50.592 Y56.879 E.05963
G1 X51.911 Y49.396 E.32669
G1 X51.925 Y49.364 E.0015
M204 S2000
M204 S3000
G1 X52.415 Y49.516 F18000
M204 S1000
G1 F1800
G1 X52.888 Y48.429 E.05097
G1 X53.72 Y47.464 E.05478
G1 X54.533 Y46.917 E.04213
G1 X55.059 Y46.701 E.02445
G1 X55.607 Y46.559 E.02434
G1 X58.481 Y46.489 E.12361
G1 X60.389 Y46.216 E.08287
G1 X72.684 Y46.221 E.52863
G1 X73.381 Y46.347 E.03045
G1 X74.077 Y46.613 E.03204
G1 X74.91 Y47.172 E.04313
G1 X75.709 Y48.002 E.04953
G1 X76.07 Y48.566 E.02879
G1 X76.371 Y49.305 E.03431
G1 X76.501 Y49.983 E.02968
G1 X76.498 Y53.546 E.15319
G1 X76.253 Y54.504 E.04252
G1 X75.762 Y55.39 E.04355
G1 X75.332 Y55.852 E.02714
G1 X75.968 Y56.667 E.04445
G1 X76.315 Y57.412 E.03534
G1 X76.501 Y58.248 E.03682
G1 X76.508 Y65.002 E.29039
G1 X76.359 Y65.726 E.03178
G1 X76.06 Y66.399 E.03166
G1 X75.699 Y66.899 E.02652
G1 X75.045 Y67.552 E.03974
G1 X74.364 Y68.006 E.03519
G1 X73.746 Y68.244 E.02847
G1 X73.104 Y68.356 E.02802
G1 X52.895 Y68.356 E.86889
G1 X52.179 Y68.222 E.03132
G1 X51.447 Y67.905 E.0343
G1 X50.945 Y67.542 E.02664
G1 X50.292 Y66.889 E.03971
G1 X49.838 Y66.207 E.03523
G1 X49.613 Y65.635 E.02643
G1 X49.492 Y64.992 E.02813
G1 X49.488 Y59.923 E.21794
G1 X49.549 Y59.452 E.02042
G1 X49.783 Y58.754 E.03165
G1 X50.103 Y58.196 E.02766
G1 X51.063 Y57.188 E.05985
G1 X52.405 Y49.575 E.33237
M204 S2000
M204 S3000
G1 X52.914 Y49.665 F18000
M204 S1000
G1 F1800
G1 X52.919 Y49.638 E.00118
G1 X53.344 Y48.676 E.04522
G1 X54.085 Y47.831 E.04832
G1 X54.754 Y47.384 E.03459
G1 X55.705 Y47.068 E.04309
G1 X58.523 Y47.004 E.12119
G1 X60.41 Y46.733 E.08196
G1 X72.659 Y46.738 E.52665
G1 X73.261 Y46.851 E.02634
G1 X73.862 Y47.084 E.02771
G1 X74.556 Y47.55 E.03594
G1 X75.318 Y48.341 E.04722
G1 X75.62 Y48.82 E.02435
G1 X75.881 Y49.472 E.0302
G1 X75.988 Y50.053 E.0254
G1 X75.989 Y53.454 E.14623
G1 X75.784 Y54.284 E.03676
G1 X75.327 Y55.107 E.04047
G1 X74.557 Y55.903 E.04762
G1 X75 Y56.268 E.02468
G1 X75.513 Y56.914 E.03547
G1 X75.833 Y57.603 E.03266
G1 X75.99 Y58.329 E.03194
G1 X75.991 Y64.974 E.2857
G1 X75.859 Y65.589 E.02704
G1 X75.601 Y66.16 E.02694
G1 X74.697 Y67.169 E.05825
G1 X74.148 Y67.535 E.02837
G1 X73.627 Y67.74 E.02407
G1 X73.08 Y67.839 E.0239
G1 X52.921 Y67.839 E.86674
G1 X52.308 Y67.72 E.02685
G1 X51.683 Y67.444 E.02938
G1 X50.675 Y66.541 E.05819
G1 X50.309 Y65.992 E.02837
G1 X50.104 Y65.471 E.02407
G1 X50.005 Y64.923 E.02394
G1 X50.058 Y59.548 E.23111
G1 X50.263 Y58.947 E.0273
G1 X50.535 Y58.481 E.0232
G1 X51.229 Y57.712 E.04454
G1 X51.535 Y57.484 E.01641
G1 X52.904 Y49.724 E.3388
M204 S2000
M204 S3000
G1 X53.413 Y49.814 F18000
M204 S1000
G1 F1800
G1 X53.422 Y49.76 E.00235
G1 X53.798 Y48.927 E.03929
G1 X54.447 Y48.202 E.04184
G1 X54.975 Y47.853 E.02721
G1 X55.802 Y47.576 E.0375
G1 X58.563 Y47.52 E.11873
G1 X60.431 Y47.25 E.08115
G1 X72.633 Y47.255 E.52463
G1 X73.645 Y47.554 E.04537
G1 X74.203 Y47.929 E.02891
G1 X74.925 Y48.679 E.04476
G1 X75.389 Y49.635 E.04569
G1 X75.475 Y50.12 E.02118
G1 X75.478 Y53.366 E.13956
G1 X75.314 Y54.065 E.03087
G1 X74.893 Y54.824 E.03732
G1 X74.437 Y55.286 E.02791
G1 X73.474 Y55.893 E.04894
G1 X74.059 Y56.177 E.02796
G1 X74.619 Y56.618 E.03065
G1 X75.06 Y57.165 E.03021
G1 X75.334 Y57.742 E.02746
G1 X75.478 Y58.411 E.02942
G1 X75.473 Y64.946 E.28097
G1 X75.377 Y65.401 E.01999
G1 X75.141 Y65.922 E.02459
G1 X74.349 Y66.785 E.05036
G1 X73.929 Y67.066 E.02173
G1 X73.055 Y67.322 E.03916
G1 X52.947 Y67.322 E.86455
G1 X52.442 Y67.22 E.02215
G1 X51.922 Y66.985 E.02453
G1 X51.059 Y66.193 E.05036
G1 X50.778 Y65.773 E.02173
G1 X50.522 Y64.898 E.0392
G1 X50.566 Y59.647 E.22578
G1 X50.965 Y58.769 E.04147
G1 X51.59 Y58.083 E.0399
G1 X52.007 Y57.785 E.02204
G1 X53.402 Y49.873 E.34543
M204 S2000
M204 S3000
G1 X53.912 Y49.963 F18000
M204 S1000
G1 F1800
G1 X53.926 Y49.884 E.00345
G1 X54.249 Y49.182 E.03322
G1 X54.804 Y48.577 E.0353
G1 X55.194 Y48.321 E.02006
G1 X55.896 Y48.086 E.03183
G1 X58.603 Y48.036 E.11641
G1 X60.452 Y47.767 E.08034
G1 X72.606 Y47.772 E.52257
G1 X73.426 Y48.023 E.03687
G1 X73.85 Y48.307 E.02194
G1 X74.531 Y49.015 E.04224
G1 X74.897 Y49.795 E.03704
G1 X74.961 Y50.182 E.01687
G1 X74.961 Y53.333 E.13548
G1 X74.82 Y53.908 E.02545
G1 X74.5 Y54.486 E.02841
G1 X74.092 Y54.9 E.02499
G1 X73.522 Y55.25 E.02876
G1 X72.963 Y55.417 E.02508
G1 X72.432 Y55.446 E.02286
G1 X71.849 Y55.335 E.02552
G1 X70.675 Y54.814 E.05522
G1 X69.571 Y54.631 E.04811
G1 X68.42 Y54.781 E.04991
G1 X67.648 Y55.213 E.03804
G1 X67.906 Y55.598 E.01993
G1 X68.284 Y55.95 E.02221
G1 X69.33 Y56.463 E.05009
G1 X69.974 Y56.607 E.02837
G1 X70.774 Y56.644 E.03443
G1 X71.398 Y56.551 E.02713
G1 X72.168 Y56.312 E.03466
G1 X72.681 Y56.28 E.0221
G1 X73.251 Y56.38 E.02488
G1 X73.769 Y56.607 E.02432
G1 X74.274 Y57.005 E.02765
G1 X74.634 Y57.46 E.02495
G1 X74.853 Y57.932 E.02237
G1 X74.961 Y58.438 E.02225
G1 X74.961 Y64.871 E.27659
G1 X74.705 Y65.643 E.03497
G1 X74.002 Y66.402 E.04448
G1 X73.707 Y66.599 E.01525
G1 X73.028 Y66.805 E.03051
G1 X52.973 Y66.805 E.86227
G1 X52.201 Y66.549 E.03497
G1 X51.442 Y65.845 E.04451
G1 X51.245 Y65.55 E.01525
G1 X51.039 Y64.872 E.03047
G1 X51.073 Y59.75 E.22023
G1 X51.392 Y59.062 E.03261
G1 X51.952 Y58.453 E.03557
G1 X52.467 Y58.157 E.02554
G1 X53.901 Y50.022 E.35516
M204 S2000
M204 S3000
G1 X54.41 Y50.112 F18000
M204 S1000
G1 F1800
G1 X54.429 Y50.009 E.0045
G1 X54.697 Y49.443 E.02693
G1 X55.157 Y48.956 E.0288
G1 X55.985 Y48.596 E.03882
G1 X58.644 Y48.552 E.11434
G1 X60.474 Y48.284 E.07952
G1 X72.576 Y48.289 E.52033
G1 X73.204 Y48.491 E.02836
G1 X73.499 Y48.688 E.01525
G1 X74.107 Y49.311 E.03743
G1 X74.405 Y49.956 E.03055
G1 X74.444 Y50.202 E.01071
G1 X74.444 Y53.299 E.13316
G1 X74.33 Y53.742 E.01967
G1 X74.069 Y54.199 E.02263
G1 X73.795 Y54.476 E.01675
G1 X73.281 Y54.792 E.02594
G1 X72.438 Y54.927 E.03671
G1 X71.987 Y54.836 E.01978
G1 X71.225 Y54.462 E.0365
G1 X70.387 Y54.208 E.03765
G1 X69.038 Y54.132 E.05809
G1 X68.258 Y54.289 E.03421
G1 X67.689 Y54.555 E.02701
G1 X67.353 Y54.852 E.01928
G1 X67.205 Y55.255 E.01846
G1 X67.336 Y55.679 E.01908
G1 X67.697 Y56.134 E.02497
G1 X68.347 Y56.605 E.03451
G1 X69.165 Y56.954 E.03824
G1 X69.904 Y57.119 E.03256
G1 X70.799 Y57.161 E.03852
G1 X71.528 Y57.053 E.03169
G1 X72.233 Y56.826 E.03184
G1 X72.68 Y56.798 E.01926
G1 X73.475 Y57.034 E.03566
G1 X73.93 Y57.392 E.02489
G1 X74.181 Y57.71 E.01742
G1 X74.444 Y58.468 E.0345
G1 X74.444 Y64.846 E.27422
G1 X74.265 Y65.37 E.02381
G1 X73.654 Y66.018 E.03829
G1 X73.002 Y66.288 E.03034
G1 X52.998 Y66.288 E.86008
G1 X52.474 Y66.109 E.02381
G1 X51.826 Y65.498 E.03829
G1 X51.556 Y64.846 E.03034
G1 X51.579 Y59.861 E.21433
G1 X51.791 Y59.391 E.02217
G1 X52.28 Y58.853 E.03126
G1 X52.78 Y58.579 E.02451
G1 X52.969 Y58.285 E.01503
G1 X54.4 Y50.171 E.35425
M204 S2000
M204 S3000
G1 X54.909 Y50.261 F18000
M204 S1000
G1 F1800
G1 X54.931 Y50.137 E.00541
G1 X55.141 Y49.712 E.02038
G1 X55.503 Y49.341 E.02229
G1 X56.069 Y49.106 E.02635
G1 X58.684 Y49.067 E.11245
G1 X60.496 Y48.801 E.07874
G1 X72.547 Y48.806 E.51814
G1 X73.151 Y49.071 E.02836
G1 X73.687 Y49.614 E.0328
G1 X73.901 Y50.074 E.02181
G1 X73.927 Y53.267 E.13729
G1 X73.637 Y53.913 E.03045
G1 X73.041 Y54.332 E.03132
G1 X72.443 Y54.409 E.02592
G1 X72.185 Y54.357 E.01132
G1 X71.427 Y53.985 E.0363
G1 X70.49 Y53.701 E.0421
G1 X69.588 Y53.596 E.03904
G1 X68.514 Y53.687 E.04634
G1 X67.723 Y53.944 E.03576
G1 X67.151 Y54.314 E.02929
G1 X66.75 Y54.872 E.02954
G1 X66.687 Y55.303 E.01873
G1 X66.885 Y55.936 E.02852
G1 X67.34 Y56.509 E.03146
G1 X67.671 Y56.785 E.01853
G1 X68.51 Y57.263 E.04152
G1 X69.328 Y57.535 E.03706
G1 X70.323 Y57.679 E.04323
G1 X71.206 Y57.641 E.038
G1 X72.616 Y57.313 E.06224
G1 X73.183 Y57.461 E.0252
G1 X73.726 Y57.958 E.03165
G1 X73.927 Y58.497 E.02473
G1 X73.927 Y64.821 E.2719
G1 X73.791 Y65.15 E.01531
G1 X73.306 Y65.634 E.02946
G1 X72.977 Y65.771 E.01532
G1 X53.023 Y65.771 E.85793
G1 X52.694 Y65.634 E.01532
G1 X52.21 Y65.15 E.02943
G1 X52.073 Y64.821 E.01532
G1 X52.082 Y59.982 E.20805
G1 X52.192 Y59.719 E.01226
G1 X52.617 Y59.246 E.02734
G1 X53.157 Y59.056 E.02461
G1 X53.454 Y58.512 E.02665
G1 X54.899 Y50.32 E.35766
M204 S2000
M204 S3000
G1 X55.408 Y50.409 F18000
M204 S1000
G1 F1800
G1 X55.433 Y50.269 E.00611
G1 X55.813 Y49.755 E.02748
G1 X56.142 Y49.619 E.01531
G1 X58.724 Y49.583 E.11102
G1 X60.519 Y49.318 E.07801
G1 X72.474 Y49.318 E.51401
G1 X72.804 Y49.455 E.01536
G1 X73.274 Y49.925 E.02858
G1 X73.41 Y50.254 E.01531
G1 X73.41 Y53.234 E.12813
G1 X73.19 Y53.635 E.01967
G1 X72.847 Y53.853 E.01747
G1 X72.448 Y53.891 E.01723
G1 X71.629 Y53.508 E.03887
G1 X70.593 Y53.193 E.04656
G1 X69.597 Y53.078 E.04311
G1 X68.41 Y53.179 E.05122
G1 X67.502 Y53.476 E.04108
G1 X66.805 Y53.928 E.03572
G1 X66.542 Y54.205 E.01642
G1 X66.261 Y54.699 E.02444
G1 X66.168 Y55.321 E.02704
G1 X66.281 Y55.863 E.0238
G1 X66.69 Y56.567 E.03501
G1 X67.364 Y57.203 E.03984
G1 X68.305 Y57.738 E.04654
G1 X69.21 Y58.039 E.04101
G1 X70.299 Y58.196 E.04731
G1 X71.28 Y58.154 E.04222
G1 X72.553 Y57.827 E.05651
G1 X72.932 Y57.914 E.01672
G1 X73.272 Y58.206 E.01927
G1 X73.41 Y58.526 E.01498
G1 X73.41 Y64.744 E.26735
G1 X72.995 Y65.214 E.02696
G1 X53.1 Y65.254 E.85539
G1 X52.63 Y64.839 E.02696
G1 X52.59 Y60.101 E.20372
G1 X52.954 Y59.645 E.02509
G1 X53.362 Y59.567 E.01786
G1 X53.571 Y59.444 E.01043
G1 X53.743 Y58.984 E.02112
G1 X53.924 Y58.829 E.01025
G1 X55.398 Y50.469 E.36499
M204 S2000
M204 S3000
G1 X55.907 Y50.558 F18000
M204 S1000
G1 F1800
G1 X55.935 Y50.398 E.00698
G1 X56.124 Y50.175 E.01257
G1 X58.764 Y50.099 E.11355
G1 X60.542 Y49.836 E.07728
G1 X72.492 Y49.875 E.5138
G1 X72.893 Y50.331 E.02611
G1 X72.893 Y53.135 E.12056
G1 X72.829 Y53.251 E.0057
G1 X72.52 Y53.369 E.01422
G1 X71.279 Y52.834 E.0581
G1 X70.084 Y52.593 E.05241
G1 X68.898 Y52.584 E.05099
G1 X67.774 Y52.812 E.04931
G1 X66.838 Y53.253 E.04449
G1 X66.141 Y53.876 E.04019
G1 X65.773 Y54.519 E.03185
G1 X65.649 Y55.346 E.03595
G1 X65.797 Y56.049 E.03089
G1 X66.284 Y56.889 E.04175
G1 X67.058 Y57.62 E.04577
G1 X68.1 Y58.214 E.05157
G1 X69.092 Y58.543 E.04494
G1 X70.275 Y58.713 E.05139
G1 X71.353 Y58.666 E.04639
G1 X72.553 Y58.353 E.05332
G1 X72.843 Y58.508 E.01414
G1 X72.893 Y64.585 E.26129
G1 X72.742 Y64.737 E.00921
G1 X53.259 Y64.737 E.83768
G1 X53.107 Y64.585 E.00924
G1 X53.107 Y60.247 E.18651
G1 X53.24 Y60.1 E.00852
G1 X53.801 Y59.917 E.02537
G1 X54.057 Y59.627 E.01663
G1 X54.186 Y59.276 E.01608
G1 X54.395 Y59.131 E.01094
G1 X55.896 Y50.617 E.37171
M204 S2000
G1 E-2 F3000
M204 S3000
G1 X55.896 Y50.617 Z.6 F18000
G1 X68.72 Y55.224
G1 Z.2
G1 E2 F1800
M204 S1000
G1 X69.569 Y55.148 E.03665
G1 X70.178 Y55.222 E.02638
G1 X71.36 Y55.674 E.05441
G1 X71.299 Y56.055 E.01659
G1 X70.753 Y56.127 E.02368
G1 X70.055 Y56.095 E.03004
