; generated by PrusaSlicer 2.7.0+win64 on 2024-11-13 at 01:01:34 UTC


;
;

;
;
; TODO: check the size of the extruder and the y-bar clearance. Optimize & test supports.

; external perimeters extrusion width = 0.42mm
; perimeters extrusion width = 0.44mm
; infill extrusion width = 0.44mm
; solid infill extrusion width = 0.44mm
; top infill extrusion width = 0.44mm
; support material extrusion width = 0.44mm
; first layer extrusion width = 0.56mm


EXCLUDE_OBJECT_DEFINE NAME=Lower_Corner_1_and_3_Clip_x2_(1)_(1)v3_stl CENTER=58.771,59.211 POLYGON=[[56.208,49.903],[64.596,49.904],[65.081,50.390],[66.644,59.253],[66.844,59.253],[67.089,59.829],[67.629,60.146],[71.737,60.169],[71.737,64.669],[69.872,64.669],[69.871,70.096],[66.871,70.096],[66.871,64.669],[63.772,64.669],[63.771,70.096],[60.771,70.096],[60.771,64.669],[57.672,64.668],[57.671,70.096],[54.671,70.095],[54.671,64.668],[48.262,64.668],[48.263,50.304],[48.663,49.903]]

;TYPE:Custom
PRINT_START EXTRUDER=250 BED=100;
G21 ; set units to millimeters
G90 ; use absolute coordinates
M83 ; use relative distances for extrusion
M107
;LAYER_CHANGE
;Z:0.2
;HEIGHT:0.2
;BEFORE_LAYER_CHANGE
;0.2
G92 E0

G1 Z.2 F18000
;AFTER_LAYER_CHANGE
;0.2
G1 E-2 F3000
G1 X43.711 Y43.714 F18000
G1 Z.2
G1 E2 F1800
M204 S1000
;TYPE:Skirt/Brim
;WIDTH:0.56
G1 X43.74 Y43.685 E.00176
G1 X44.735 Y43.02 E.05146
G1 X46.573 Y42.259 E.08553
G1 X47.747 Y42.025 E.05147
G1 X49.622 Y42.025 E.08062
G1 X60.839 Y42.026 E.48228
G1 X65.997 Y42.332 E.22216
G1 X66.986 Y42.56 E.04364
G1 X68.824 Y43.321 E.08553
G1 X69.819 Y43.987 E.05148
G1 X71.154 Y45.322 E.08117
G1 X71.647 Y45.966 E.03487
G1 X77.832 Y56.764 E.53503
G1 X78.238 Y58.289 E.06785
G1 X78.203 Y67 E.37454
G1 X77.316 Y73.005 E.26099
G1 X76.712 Y74.427 E.06643
G1 X76.454 Y74.763 E.01821
G1 X75.225 Y75.714 E.06681
G1 X74.022 Y75.96 E.05279
G1 X51.424 Y75.96 E.97161
G1 X49.704 Y75.433 E.07735
G1 X44.661 Y72.019 E.26184
G1 X41.282 Y68.718 E.2031
G1 X40.497 Y67.377 E.06681
G1 X40.384 Y66.548 E.03597
G1 X40.385 Y49.387 E.73784
G1 X40.618 Y48.213 E.05146
G1 X41.379 Y46.376 E.08549
G1 X42.045 Y45.38 E.05152
G1 X43.668 Y43.757 E.09869
M204 S2000
M204 S3000
G1 X44.034 Y44.123 F18000
M204 S1000
G1 F1800
G1 X44.106 Y44.051 E.00438
G1 X44.933 Y43.498 E.04277
G1 X46.771 Y42.737 E.08553
G1 X47.747 Y42.542 E.04279
G1 X49.622 Y42.543 E.08062
G1 X60.839 Y42.543 E.48228
G1 X65.965 Y42.848 E.22078
G1 X66.788 Y43.038 E.03632
G1 X68.626 Y43.799 E.08553
G1 X69.454 Y44.352 E.04281
G1 X70.789 Y45.688 E.0812
G1 X71.198 Y46.223 E.02895
G1 X77.384 Y57.021 E.53505
G1 X77.721 Y58.289 E.05641
G1 X77.692 Y66.924 E.37127
G1 X76.804 Y72.929 E.26099
G1 X76.302 Y74.111 E.05521
G1 X76.044 Y74.448 E.01825
G1 X74.904 Y75.286 E.06083
G1 X74.022 Y75.443 E.03852
G1 X51.424 Y75.443 E.97161
G1 X49.994 Y75.005 E.0643
G1 X44.95 Y71.59 E.2619
G1 X41.648 Y68.352 E.19884
G1 X40.901 Y66.548 E.08395
G1 X40.902 Y49.387 E.73784
G1 X41.096 Y48.411 E.04278
G1 X41.857 Y46.574 E.08549
G1 X42.41 Y45.746 E.04281
G1 X43.991 Y44.165 E.09613
M204 S2000
M204 S3000
G1 X44.357 Y44.531 F18000
M204 S1000
G1 F1800
G1 X44.471 Y44.416 E.00696
G1 X45.131 Y43.975 E.03413
G1 X46.969 Y43.214 E.08553
G1 X47.747 Y43.06 E.0341
G1 X49.622 Y43.06 E.08062
G1 X60.839 Y43.06 E.48228
G1 X65.934 Y43.364 E.21945
G1 X66.59 Y43.515 E.02894
G1 X68.428 Y44.277 E.08555
G1 X69.088 Y44.718 E.03413
G1 X70.423 Y46.053 E.08117
G1 X70.749 Y46.48 E.0231
G1 X76.935 Y57.278 E.53505
G1 X77.204 Y58.289 E.04498
G1 X77.18 Y66.849 E.36804
G1 X76.293 Y72.853 E.26095
G1 X75.893 Y73.796 E.04404
G1 X75.634 Y74.132 E.01824
G1 X74.022 Y74.926 E.07726
G1 X51.424 Y74.926 E.97161
G1 X50.284 Y74.576 E.05127
G1 X45.24 Y71.162 E.26187
G1 X42.013 Y67.987 E.19464
G1 X41.418 Y66.548 E.06695
G1 X41.419 Y49.387 E.73784
G1 X41.574 Y48.609 E.03411
G1 X42.335 Y46.771 E.08553
G1 X42.776 Y46.112 E.03409
G1 X44.314 Y44.573 E.09355
M204 S2000
M204 S3000
G1 X44.68 Y44.939 F18000
M204 S1000
G1 F1800
G1 X44.837 Y44.782 E.00955
G1 X45.329 Y44.453 E.02545
G1 X47.167 Y43.692 E.08553
G1 X47.747 Y43.577 E.02542
G1 X49.622 Y43.577 E.08062
G1 X60.839 Y43.577 E.48228
G1 X65.903 Y43.88 E.21812
G1 X66.392 Y43.993 E.02158
G1 X68.23 Y44.755 E.08555
G1 X68.722 Y45.084 E.02545
G1 X70.057 Y46.419 E.08117
G1 X70.301 Y46.737 E.01723
G1 X76.486 Y57.535 E.53503
G1 X76.687 Y58.289 E.03355
G1 X76.669 Y66.773 E.36477
G1 X75.781 Y72.778 E.26099
G1 X75.483 Y73.481 E.03283
G1 X75.224 Y73.817 E.01824
G1 X74.022 Y74.409 E.05761
G1 X51.424 Y74.409 E.97161
G1 X50.574 Y74.148 E.03823
G1 X45.53 Y70.734 E.26187
G1 X42.379 Y67.621 E.19044
G1 X41.935 Y66.549 E.04989
G1 X41.936 Y49.388 E.73784
G1 X42.051 Y48.807 E.02546
G1 X42.813 Y46.969 E.08555
G1 X43.141 Y46.477 E.02542
G1 X44.638 Y44.981 E.09099
M204 S2000
M204 S3000
G1 X45.959 Y46.693 F18000
M204 S1000
G1 F1800
G1 X46.361 Y46.383 E.02183
G1 X47.262 Y45.947 E.04304
G1 X48.198 Y45.723 E.04138
G1 X60.89 Y45.713 E.5457
G1 X62.098 Y45.913 E.05265
G1 X63.22 Y45.999 E.04838
G1 X65.255 Y46.012 E.0875
G1 X66.086 Y46.177 E.03643
G1 X66.739 Y46.433 E.03016
G1 X67.358 Y46.79 E.03072
G1 X68.565 Y48.037 E.07462
G1 X69.176 Y49.396 E.06406
G1 X70.335 Y55.97 E.28701
G1 X70.881 Y55.986 E.02349
G1 X71.576 Y56.142 E.03063
G1 X72.234 Y56.423 E.03076
G1 X72.865 Y56.85 E.03276
G1 X73.736 Y57.733 E.05333
G1 X74.142 Y58.366 E.03233
G1 X74.422 Y59.071 E.03261
G1 X74.565 Y59.865 E.03469
G1 X74.564 Y64.975 E.21971
G1 X74.376 Y65.918 E.04134
G1 X73.864 Y66.94 E.04915
G1 X72.628 Y68.175 E.07512
G1 X71.607 Y68.687 E.04911
G1 X70.663 Y68.874 E.04138
G1 X47.957 Y68.873 E.97625
G1 X47.013 Y68.685 E.04138
G1 X45.992 Y68.174 E.04909
G1 X44.756 Y66.938 E.07515
G1 X44.244 Y65.916 E.04915
G1 X44.057 Y64.971 E.04142
G1 X44.076 Y58.154 E.2931
G1 X44.315 Y57.154 E.04421
G1 X44.666 Y56.416 E.03514
G1 X45.066 Y55.89 E.02841
G1 X44.398 Y54.803 E.05486
G1 X44.083 Y53.656 E.05114
G1 X44.082 Y49.839 E.16411
G1 X44.283 Y48.962 E.03868
G1 X44.548 Y48.344 E.02891
G1 X44.907 Y47.766 E.02925
G1 X45.811 Y46.808 E.05663
G1 X45.912 Y46.73 E.00549
M204 S2000
M204 S3000
G1 X46.225 Y47.138 F18000
M204 S1000
G1 F1800
G1 X46.653 Y46.81 E.02318
G1 X47.458 Y46.426 E.03835
G1 X48.285 Y46.233 E.03651
G1 X60.827 Y46.227 E.53925
G1 X62.604 Y46.489 E.07723
G1 X65.227 Y46.529 E.11279
G1 X65.918 Y46.667 E.0303
G1 X67.069 Y47.22 E.0549
G1 X68.135 Y48.325 E.06601
G1 X68.672 Y49.517 E.05621
G1 X69.9 Y56.483 E.30412
G1 X70.799 Y56.497 E.03866
G1 X71.396 Y56.627 E.02627
G1 X72.007 Y56.888 E.02857
G1 X72.552 Y57.262 E.02842
G1 X73.318 Y58.038 E.04688
G1 X73.673 Y58.584 E.028
G1 X73.919 Y59.192 E.0282
G1 X74.048 Y59.89 E.03052
G1 X74.047 Y64.949 E.21751
G1 X73.888 Y65.744 E.03486
G1 X73.435 Y66.649 E.04351
G1 X72.338 Y67.746 E.0667
G1 X71.433 Y68.199 E.04351
G1 X70.638 Y68.357 E.03485
G1 X47.982 Y68.356 E.9741
G1 X47.187 Y68.198 E.03485
G1 X46.282 Y67.745 E.04351
G1 X45.185 Y66.647 E.06673
G1 X44.732 Y65.742 E.04351
G1 X44.574 Y64.946 E.03489
G1 X44.593 Y58.186 E.29065
G1 X44.793 Y57.352 E.03687
G1 X45.12 Y56.665 E.03271
G1 X45.751 Y55.857 E.04408
G1 X45.319 Y55.381 E.02764
G1 X44.865 Y54.578 E.03966
G1 X44.591 Y53.557 E.04545
G1 X44.599 Y49.87 E.15852
G1 X44.768 Y49.145 E.03201
G1 X45.331 Y48.063 E.05244
G1 X46.171 Y47.18 E.0524
G1 X46.177 Y47.175 E.00034
M204 S2000
M204 S3000
G1 X46.529 Y47.553 F18000
M204 S1000
G1 F1800
G1 X46.942 Y47.24 E.02228
G1 X47.651 Y46.906 E.0337
G1 X48.37 Y46.744 E.03169
G1 X60.764 Y46.741 E.53288
G1 X61.957 Y46.937 E.05198
G1 X63.194 Y47.033 E.05335
G1 X65.199 Y47.046 E.08621
G1 X65.751 Y47.156 E.0242
G1 X66.778 Y47.649 E.04898
G1 X67.703 Y48.611 E.05738
G1 X68.169 Y49.639 E.04853
G1 X69.466 Y56.998 E.32128
G1 X70.716 Y57.008 E.05375
G1 X71.26 Y57.127 E.02394
G1 X71.775 Y57.351 E.02415
G1 X72.236 Y57.672 E.02415
G1 X72.901 Y58.345 E.04068
G1 X73.206 Y58.806 E.02377
G1 X73.416 Y59.316 E.02371
G1 X73.531 Y59.915 E.02622
G1 X73.53 Y64.924 E.21536
G1 X73.401 Y65.57 E.02832
G1 X73.008 Y66.356 E.03778
G1 X72.045 Y67.319 E.05855
G1 X71.258 Y67.712 E.03782
G1 X70.612 Y67.84 E.02831
G1 X48.008 Y67.839 E.97187
G1 X47.362 Y67.71 E.02832
G1 X46.575 Y67.317 E.03782
G1 X45.612 Y66.354 E.05855
G1 X45.219 Y65.568 E.03778
G1 X45.091 Y64.922 E.02831
G1 X45.103 Y58.274 E.28583
G1 X45.272 Y57.548 E.03205
G1 X45.574 Y56.915 E.03015
G1 X46.087 Y56.268 E.0355
G1 X46.568 Y55.873 E.02676
G1 X45.753 Y55.098 E.04835
G1 X45.332 Y54.353 E.03679
G1 X45.1 Y53.46 E.03967
G1 X45.115 Y49.903 E.15294
G1 X45.252 Y49.327 E.02546
G1 X45.754 Y48.361 E.04681
G1 X46.487 Y47.596 E.04555
M204 S2000
M204 S3000
G1 X46.859 Y47.956 F18000
M204 S1000
G1 F1800
G1 X46.885 Y47.928 E.00164
G1 X47.229 Y47.671 E.01846
G1 X47.841 Y47.388 E.02899
G1 X48.452 Y47.255 E.02689
G1 X60.741 Y47.258 E.52837
G1 X62.524 Y47.521 E.07749
G1 X65.169 Y47.563 E.11374
G1 X65.621 Y47.657 E.01985
G1 X66.484 Y48.075 E.04123
G1 X67.269 Y48.892 E.04871
G1 X67.665 Y49.761 E.04106
G1 X69.032 Y57.514 E.33848
G1 X70.637 Y57.52 E.06901
G1 X71.506 Y57.794 E.03918
G1 X71.887 Y58.054 E.01983
G1 X72.515 Y58.69 E.03843
G1 X72.915 Y59.445 E.03674
G1 X73.013 Y59.941 E.02174
G1 X73.012 Y64.898 E.21313
G1 X72.914 Y65.395 E.02178
G1 X72.582 Y66.062 E.03203
G1 X71.75 Y66.893 E.05056
G1 X71.084 Y67.224 E.03198
G1 X70.587 Y67.323 E.02179
G1 X48.033 Y67.322 E.96972
G1 X47.536 Y67.223 E.02179
G1 X46.87 Y66.892 E.03198
G1 X46.038 Y66.06 E.05059
G1 X45.707 Y65.393 E.03201
G1 X45.608 Y64.896 E.02179
G1 X45.614 Y58.358 E.2811
G1 X45.752 Y57.743 E.0271
G1 X46.027 Y57.165 E.02752
G1 X46.469 Y56.618 E.03024
G1 X47.028 Y56.177 E.03061
G1 X47.645 Y55.881 E.02942
G1 X46.597 Y55.243 E.05275
G1 X46.153 Y54.768 E.02796
G1 X45.8 Y54.132 E.03127
G1 X45.617 Y53.428 E.03127
G1 X45.626 Y49.99 E.14782
G1 X45.933 Y49.044 E.04276
G1 X46.176 Y48.661 E.0195
G1 X46.817 Y47.999 E.03962
M204 S2000
M204 S3000
G1 X47.195 Y48.402 F18000
M204 S1000
G1 F1800
G1 X47.512 Y48.104 E.01871
G1 X48.028 Y47.871 E.02434
G1 X48.48 Y47.772 E.01989
G1 X60.677 Y47.771 E.52441
G1 X61.813 Y47.962 E.04953
G1 X63.167 Y48.067 E.05839
G1 X65.137 Y48.079 E.0847
G1 X65.486 Y48.157 E.01538
G1 X66.187 Y48.5 E.03355
G1 X66.83 Y49.165 E.03977
G1 X67.162 Y49.885 E.03409
G1 X68.598 Y58.032 E.35568
G1 X70.563 Y58.032 E.08449
G1 X70.911 Y58.102 E.01526
G1 X71.538 Y58.437 E.03056
G1 X72.127 Y59.033 E.03603
G1 X72.427 Y59.618 E.02827
G1 X72.496 Y59.966 E.01525
G1 X72.495 Y64.873 E.21098
G1 X72.426 Y65.221 E.01525
G1 X72.159 Y65.764 E.02602
G1 X71.453 Y66.469 E.0429
G1 X70.91 Y66.737 E.02604
G1 X70.562 Y66.806 E.01525
G1 X48.059 Y66.805 E.96752
G1 X47.711 Y66.735 E.01526
G1 X47.167 Y66.468 E.02605
G1 X46.462 Y65.762 E.0429
G1 X46.194 Y65.219 E.02604
G1 X46.125 Y64.871 E.01525
G1 X46.125 Y58.438 E.27659
G1 X46.234 Y57.932 E.02225
G1 X46.453 Y57.46 E.02237
G1 X46.813 Y57.005 E.02495
G1 X47.319 Y56.607 E.02768
G1 X47.836 Y56.38 E.02428
G1 X48.405 Y56.281 E.02483
G1 X48.919 Y56.313 E.02214
G1 X49.687 Y56.551 E.03457
G1 X50.312 Y56.644 E.02717
G1 X51.112 Y56.607 E.03443
G1 X51.756 Y56.463 E.02837
G1 X52.802 Y55.95 E.05009
G1 X53.185 Y55.592 E.02254
G1 X53.424 Y55.203 E.01963
G1 X52.667 Y54.781 E.03726
G1 X51.515 Y54.631 E.04995
G1 X50.411 Y54.814 E.04811
G1 X49.298 Y55.314 E.05246
G1 X48.653 Y55.445 E.0283
G1 X48.122 Y55.416 E.02286
G1 X47.697 Y55.307 E.01886
G1 X46.897 Y54.821 E.04025
G1 X46.587 Y54.486 E.01962
G1 X46.291 Y53.967 E.02569
G1 X46.126 Y53.331 E.02825
G1 X46.137 Y50.075 E.13999
G1 X46.382 Y49.302 E.03486
G1 X46.598 Y48.962 E.01732
G1 X47.151 Y48.443 E.03261
M204 S2000
M204 S3000
G1 X47.499 Y48.814 F18000
M204 S1000
G1 F1800
G1 X47.791 Y48.54 E.01722
G1 X48.509 Y48.289 E.0327
G1 X60.613 Y48.285 E.52042
G1 X62.444 Y48.552 E.07956
G1 X65.102 Y48.596 E.1143
G1 X65.887 Y48.921 E.03653
G1 X66.391 Y49.445 E.03126
G1 X66.659 Y50.01 E.02689
G1 X68.119 Y58.296 E.36175
G1 X68.311 Y58.549 E.01366
G1 X70.736 Y58.589 E.10428
G1 X71.189 Y58.819 E.02184
G1 X71.739 Y59.376 E.03366
G1 X71.94 Y59.793 E.0199
G1 X71.978 Y64.847 E.2173
G1 X71.738 Y65.462 E.02838
G1 X71.151 Y66.049 E.03569
G1 X70.536 Y66.289 E.02838
G1 X48.084 Y66.288 E.96533
G1 X47.469 Y66.048 E.02838
G1 X46.882 Y65.46 E.03572
G1 X46.642 Y64.846 E.02834
G1 X46.643 Y58.469 E.27418
G1 X46.906 Y57.71 E.03454
G1 X47.157 Y57.392 E.01742
G1 X47.612 Y57.034 E.02489
G1 X48.407 Y56.799 E.03564
G1 X48.853 Y56.827 E.01921
G1 X49.558 Y57.053 E.03183
G1 X50.287 Y57.161 E.03169
G1 X51.182 Y57.119 E.03852
G1 X51.921 Y56.954 E.03256
G1 X52.739 Y56.605 E.03824
G1 X53.389 Y56.134 E.03451
G1 X53.806 Y55.569 E.03019
G1 X53.886 Y55.264 E.01356
G1 X53.828 Y54.991 E.012
G1 X53.4 Y54.556 E.02624
G1 X52.828 Y54.289 E.02714
G1 X52.048 Y54.132 E.03421
G1 X50.699 Y54.208 E.05809
G1 X49.861 Y54.462 E.03765
G1 X49.1 Y54.835 E.03644
G1 X48.649 Y54.927 E.01979
G1 X47.868 Y54.818 E.0339
G1 X47.246 Y54.438 E.03134
G1 X46.758 Y53.741 E.03658
G1 X46.643 Y53.298 E.01968
G1 X46.648 Y50.155 E.13513
G1 X46.85 Y49.523 E.02853
G1 X47.016 Y49.267 E.01312
G1 X47.455 Y48.855 E.02589
M204 S2000
M204 S3000
G1 X47.804 Y49.225 F18000
M204 S1000
G1 F1800
G1 X48.064 Y48.98 E.01536
G1 X48.542 Y48.806 E.02187
G1 X60.59 Y48.802 E.51801
G1 X62.404 Y49.068 E.07883
G1 X65.018 Y49.107 E.1124
G1 X65.584 Y49.341 E.02633
G1 X65.947 Y49.713 E.02235
G1 X66.156 Y50.138 E.02036
G1 X67.632 Y58.513 E.36564
G1 X67.934 Y59.066 E.02709
G1 X70.562 Y59.076 E.11299
G1 X70.841 Y59.203 E.01318
G1 X71.326 Y59.687 E.02946
G1 X71.452 Y59.967 E.0132
G1 X71.461 Y64.822 E.20874
G1 X71.325 Y65.151 E.01531
G1 X70.84 Y65.635 E.02946
G1 X70.511 Y65.772 E.01532
G1 X48.109 Y65.771 E.96318
G1 X47.78 Y65.634 E.01532
G1 X47.296 Y65.15 E.02943
G1 X47.159 Y64.82 E.01536
G1 X47.16 Y58.497 E.27186
G1 X47.361 Y57.958 E.02473
G1 X47.904 Y57.462 E.03162
G1 X48.471 Y57.313 E.02521
G1 X49.88 Y57.641 E.0622
G1 X50.763 Y57.679 E.038
G1 X51.758 Y57.535 E.04323
G1 X52.577 Y57.263 E.0371
G1 X53.415 Y56.785 E.04148
G1 X54.014 Y56.219 E.03543
G1 X54.269 Y55.803 E.02098
G1 X54.404 Y55.271 E.0236
G1 X54.283 Y54.752 E.02291
G1 X53.966 Y54.341 E.02232
G1 X53.363 Y53.944 E.03104
G1 X52.573 Y53.687 E.03572
G1 X51.498 Y53.596 E.04639
G1 X50.596 Y53.701 E.03904
G1 X49.659 Y53.985 E.0421
G1 X48.902 Y54.356 E.03625
G1 X48.644 Y54.409 E.01132
G1 X48.046 Y54.331 E.02593
G1 X47.588 Y54.05 E.0231
G1 X47.224 Y53.515 E.02782
G1 X47.16 Y53.266 E.01105
G1 X47.16 Y50.229 E.13058
G1 X47.43 Y49.577 E.03034
G1 X47.76 Y49.267 E.01947
M204 S2000
M204 S3000
G1 X48.116 Y49.623 F18000
M204 S1000
G1 F1800
G1 X48.284 Y49.455 E.01022
G1 X48.613 Y49.318 E.01532
G1 X60.567 Y49.319 E.51397
G1 X62.364 Y49.584 E.0781
G1 X64.946 Y49.619 E.11102
G1 X65.275 Y49.756 E.01532
G1 X65.654 Y50.27 E.02746
G1 X67.163 Y58.83 E.37372
G1 X67.344 Y58.985 E.01025
G1 X67.505 Y59.421 E.01998
G1 X67.669 Y59.55 E.00897
G1 X70.435 Y59.584 E.11893
G1 X70.945 Y60.094 E.03101
G1 X70.905 Y64.84 E.20406
G1 X70.434 Y65.255 E.02699
G1 X48.091 Y65.214 E.96065
G1 X47.676 Y64.743 E.02699
G1 X47.677 Y58.526 E.2673
G1 X47.815 Y58.207 E.01494
G1 X48.155 Y57.914 E.0193
G1 X48.534 Y57.827 E.01672
G1 X49.806 Y58.154 E.05647
G1 X50.787 Y58.196 E.04222
G1 X51.876 Y58.039 E.04731
G1 X52.781 Y57.738 E.04101
G1 X53.722 Y57.203 E.04654
G1 X54.406 Y56.557 E.04045
G1 X54.743 Y56.013 E.02751
G1 X54.919 Y55.324 E.03058
G1 X54.864 Y54.82 E.0218
G1 X54.747 Y54.518 E.01392
G1 X54.318 Y53.96 E.03026
G1 X53.585 Y53.476 E.03777
G1 X52.677 Y53.179 E.04108
G1 X51.489 Y53.078 E.05126
G1 X50.494 Y53.193 E.04307
G1 X49.458 Y53.508 E.04656
G1 X48.639 Y53.891 E.03887
G1 X48.241 Y53.852 E.01719
G1 X47.897 Y53.634 E.01751
G1 X47.677 Y53.233 E.01967
G1 X47.677 Y50.254 E.12808
G1 X47.814 Y49.925 E.01532
G1 X48.073 Y49.665 E.01578
M204 S2000
M204 S3000
G1 X48.472 Y50.015 F18000
M204 S1000
G1 F1800
G1 X48.595 Y49.875 E.00801
G1 X49.161 Y49.835 E.0244
G1 X60.544 Y49.836 E.48942
G1 X62.324 Y50.1 E.07737
G1 X64.963 Y50.176 E.11351
G1 X65.152 Y50.398 E.01254
G1 X66.691 Y59.131 E.38126
G1 X66.901 Y59.277 E.011
G1 X67.141 Y59.784 E.02412
G1 X67.643 Y60.079 E.02503
G1 X70.277 Y60.101 E.11325
G1 X70.428 Y60.252 E.00918
G1 X70.427 Y64.586 E.18634
G1 X70.276 Y64.738 E.00921
G1 X48.345 Y64.736 E.94293
G1 X48.193 Y64.585 E.00921
G1 X48.244 Y58.508 E.26129
G1 X48.534 Y58.353 E.01414
